;FLAVOR:Marlin
;TIME:320
;Filament used: 0.282979m
;Layer height: 0.2
;Generated with Cura_SteamEngine 3.6.0
M140 S60
M105
M190 S60
M104 S205
M105
M109 S205
M82 ;absolute extrusion mode
; Ender 3 Custom Start G-code
G28 ; Home all axes
G92 E0 ; Reset Extruder
G1 Z2.0 F3000 ; Move Z Axis up little to prevent scratching of Heat Bed
G1 X0.1 Y20 Z0.3 F5000.0 ; Move to start position
G1 X0.1 Y200.0 Z0.3 F1500.0 E15 ; Draw the first line
G1 X0.4 Y200.0 Z0.3 F5000.0 ; Move to side a little
G1 X0.4 Y20 Z0.3 F1500.0 E30 ; Draw the second line
G92 E0 ; Reset Extruder
G1 Z2.0 F3000 ; Move Z Axis up little to prevent scratching of Heat Bed
; End of custom start GCode
G92 E0
G1 F2400 E-6
;LAYER_COUNT:2
;LAYER:0
M107
M204 S5000
M205 X30 Y30
G0 F3600 X17.971 Y17.996 Z0.2
M204 S500
M205 X15 Y15
;TYPE:SKIRT
G1 F2400 E0
G1 F1800 X18.503 Y17.517 E0.02381
G1 X19.085 Y17.102 E0.04758
G1 X19.71 Y16.753 E0.07139
G1 X20.37 Y16.477 E0.09519
G1 X21.056 Y16.276 E0.11896
G1 X21.761 Y16.153 E0.14277
G1 X22.509 Y16.109 E0.16769
G1 X42.495 Y16.11 E0.83242
G1 X43.209 Y16.15 E0.85621
G1 X43.915 Y16.269 E0.88002
G1 X44.602 Y16.467 E0.9038
G1 X45.263 Y16.74 E0.92759
G1 X45.89 Y17.085 E0.95139
G1 X46.474 Y17.497 E0.97516
G1 X47.197 Y18.168 E1.00797
G1 X49.916 Y21.113 E1.14128
G1 X53.707 Y24.85 E1.31834
G1 X57.683 Y28.349 E1.49449
G1 X61.86 Y31.624 E1.67103
G1 X66.192 Y34.642 E1.84663
G1 X70.698 Y37.417 E2.02264
G1 X75.35 Y39.931 E2.19852
G1 X80.208 Y42.211 E2.37701
G1 X82.508 Y43.176 E2.45997
G1 X87.561 Y45.043 E2.63913
G1 X92.612 Y46.591 E2.81484
G1 X97.824 Y47.873 E2.99336
G1 X100.323 Y48.373 E3.07813
G1 X105.59 Y49.201 E3.25546
G1 X110.849 Y49.726 E3.43124
G1 X116.148 Y49.952 E3.60765
G1 X121.434 Y49.881 E3.78348
G1 X126.706 Y49.51 E3.95926
G1 X131.968 Y48.838 E4.1357
G1 X137.225 Y47.863 E4.31353
G1 X139.731 Y47.288 E4.39904
G1 X142.274 Y46.627 E4.48643
G1 X147.388 Y45.065 E4.66428
G1 X152.351 Y43.235 E4.84022
G1 X157.187 Y41.135 E5.01557
G1 X161.937 Y38.744 E5.19245
G1 X166.523 Y36.101 E5.36849
G1 X170.949 Y33.205 E5.54442
G1 X175.204 Y30.063 E5.72034
G1 X179.28 Y26.681 E5.8965
G1 X183.189 Y23.047 E6.07402
G1 X185.023 Y21.19 E6.16082
G1 X187.802 Y18.173 E6.29725
G1 X188.315 Y17.675 E6.32103
G1 X188.881 Y17.237 E6.34484
G1 X189.492 Y16.865 E6.36863
G1 X190.14 Y16.564 E6.39239
G1 X190.818 Y16.336 E6.41618
G1 X191.518 Y16.186 E6.43999
G1 X192.509 Y16.109 E6.47305
G1 X212.491 Y16.109 E7.13766
G1 X213.205 Y16.149 E7.16144
G1 X213.91 Y16.268 E7.18522
G1 X214.598 Y16.466 E7.20904
G1 X215.259 Y16.739 E7.23282
G1 X215.886 Y17.083 E7.25661
G1 X216.47 Y17.496 E7.2804
G1 X217.004 Y17.971 E7.30417
G1 X217.483 Y18.503 E7.32798
G1 X217.898 Y19.085 E7.35175
G1 X218.247 Y19.71 E7.37556
G1 X218.523 Y20.37 E7.39936
G1 X218.724 Y21.056 E7.42313
G1 X218.847 Y21.761 E7.44693
G1 X218.891 Y22.509 E7.47186
G1 X218.89 Y42.495 E8.13659
G1 X218.85 Y43.209 E8.16038
G1 X218.731 Y43.915 E8.18419
G1 X218.533 Y44.602 E8.20797
G1 X218.26 Y45.263 E8.23176
G1 X217.915 Y45.89 E8.25556
G1 X217.503 Y46.474 E8.27933
G1 X216.832 Y47.197 E8.31214
G1 X213.887 Y49.916 E8.44545
G1 X210.15 Y53.707 E8.6225
G1 X206.651 Y57.683 E8.79866
G1 X203.376 Y61.86 E8.9752
G1 X200.358 Y66.192 E9.1508
G1 X197.583 Y70.698 E9.32681
G1 X195.069 Y75.35 E9.50269
G1 X192.789 Y80.208 E9.68118
G1 X191.824 Y82.508 E9.76413
G1 X189.957 Y87.561 E9.9433
G1 X188.409 Y92.612 E10.11901
G1 X187.127 Y97.824 E10.29753
G1 X186.627 Y100.323 E10.3823
G1 X185.799 Y105.59 E10.55963
G1 X185.274 Y110.849 E10.73541
G1 X185.048 Y116.148 E10.91182
G1 X185.119 Y121.434 E11.08765
G1 X185.49 Y126.706 E11.26343
G1 X186.162 Y131.968 E11.43987
G1 X187.137 Y137.225 E11.6177
G1 X187.712 Y139.731 E11.70321
G1 X188.373 Y142.274 E11.7906
G1 X189.935 Y147.388 E11.96845
G1 X191.765 Y152.351 E12.14439
G1 X193.865 Y157.187 E12.31974
G1 X196.256 Y161.937 E12.49661
G1 X198.899 Y166.523 E12.67266
G1 X201.795 Y170.949 E12.84859
G1 X204.937 Y175.204 E13.02451
G1 X208.319 Y179.28 E13.20067
G1 X211.953 Y183.189 E13.37819
G1 X213.805 Y185.018 E13.46476
G1 X216.771 Y187.747 E13.59881
G1 X217.27 Y188.26 E13.62262
G1 X217.708 Y188.826 E13.64642
G1 X218.08 Y189.436 E13.67018
G1 X218.382 Y190.085 E13.69399
G1 X218.61 Y190.763 E13.71778
G1 X218.751 Y191.408 E13.73974
G1 X218.813 Y191.781 E13.75232
G1 X218.9 Y192.833 E13.78743
G1 X218.891 Y212.494 E14.44135
G1 X218.851 Y213.208 E14.46514
G1 X218.731 Y213.913 E14.48893
G1 X218.533 Y214.601 E14.51274
G1 X218.26 Y215.262 E14.53652
G1 X217.915 Y215.888 E14.5603
G1 X217.502 Y216.472 E14.58409
G1 X217.026 Y217.006 E14.60788
G1 X216.494 Y217.484 E14.63167
G1 X215.912 Y217.9 E14.65546
G1 X215.287 Y218.248 E14.67925
G1 X214.627 Y218.524 E14.70305
G1 X213.941 Y218.725 E14.72682
G1 X213.236 Y218.847 E14.75062
G1 X212.491 Y218.891 E14.77544
G1 X192.505 Y218.89 E15.44018
G1 X191.791 Y218.85 E15.46396
G1 X191.085 Y218.731 E15.48778
G1 X190.398 Y218.533 E15.51156
G1 X189.737 Y218.26 E15.53534
G1 X189.11 Y217.915 E15.55915
G1 X188.526 Y217.503 E15.58292
G1 X187.803 Y216.832 E15.61572
G1 X185.084 Y213.887 E15.74904
G1 X181.293 Y210.15 E15.92609
G1 X177.317 Y206.651 E16.10225
G1 X173.14 Y203.376 E16.27879
G1 X168.808 Y200.358 E16.45439
G1 X164.302 Y197.583 E16.6304
G1 X159.65 Y195.069 E16.80627
G1 X154.792 Y192.789 E16.98476
G1 X152.492 Y191.824 E17.06772
G1 X147.439 Y189.957 E17.24689
G1 X142.388 Y188.409 E17.4226
G1 X137.176 Y187.127 E17.60112
G1 X134.677 Y186.627 E17.68588
G1 X129.41 Y185.799 E17.86322
G1 X124.151 Y185.274 E18.039
G1 X118.852 Y185.048 E18.21541
G1 X113.566 Y185.119 E18.39123
G1 X108.294 Y185.49 E18.56702
G1 X103.032 Y186.162 E18.74345
G1 X97.775 Y187.137 E18.92128
G1 X95.269 Y187.712 E19.0068
G1 X92.726 Y188.373 E19.09419
G1 X87.612 Y189.935 E19.27204
G1 X82.649 Y191.765 E19.44797
G1 X77.813 Y193.865 E19.62333
G1 X73.063 Y196.256 E19.8002
G1 X68.477 Y198.899 E19.97625
G1 X64.051 Y201.795 E20.15217
G1 X59.796 Y204.937 E20.3281
G1 X55.72 Y208.319 E20.50425
G1 X51.811 Y211.953 E20.68177
G1 X49.977 Y213.81 E20.76858
G1 X47.198 Y216.827 E20.90501
G1 X46.685 Y217.325 E20.92879
G1 X46.119 Y217.763 E20.95259
G1 X45.508 Y218.135 E20.97638
G1 X44.86 Y218.436 E21.00015
G1 X44.182 Y218.664 E21.02394
G1 X43.482 Y218.814 E21.04775
G1 X42.491 Y218.891 E21.08081
G1 X22.509 Y218.891 E21.74541
G1 X21.795 Y218.851 E21.7692
G1 X21.09 Y218.732 E21.79298
G1 X20.402 Y218.534 E21.81679
G1 X19.741 Y218.261 E21.84058
G1 X19.114 Y217.917 E21.86436
G1 X18.53 Y217.504 E21.88815
G1 X17.996 Y217.029 E21.91192
G1 X17.517 Y216.497 E21.93573
G1 X17.102 Y215.915 E21.95951
G1 X16.753 Y215.29 E21.98332
G1 X16.477 Y214.63 E22.00711
G1 X16.276 Y213.944 E22.03089
G1 X16.153 Y213.239 E22.05469
G1 X16.109 Y212.491 E22.07961
G1 X16.11 Y192.505 E22.74435
G1 X16.15 Y191.791 E22.76813
G1 X16.269 Y191.085 E22.79195
G1 X16.467 Y190.398 E22.81573
G1 X16.74 Y189.737 E22.83951
G1 X17.085 Y189.11 E22.86332
G1 X17.497 Y188.526 E22.88709
G1 X18.168 Y187.803 E22.91989
G1 X21.113 Y185.084 E23.05321
G1 X24.85 Y181.293 E23.23026
G1 X28.349 Y177.317 E23.40642
G1 X31.624 Y173.14 E23.58296
G1 X34.642 Y168.808 E23.75856
G1 X37.417 Y164.302 E23.93457
G1 X39.931 Y159.65 E24.11044
G1 X42.211 Y154.792 E24.28893
G1 X43.176 Y152.492 E24.37189
G1 X45.043 Y147.439 E24.55106
G1 X46.591 Y142.388 E24.72677
G1 X47.873 Y137.176 E24.90529
G1 X48.373 Y134.677 E24.99005
G1 X49.201 Y129.41 E25.16738
G1 X49.726 Y124.151 E25.34317
G1 X49.952 Y118.852 E25.51957
G1 X49.881 Y113.566 E25.6954
G1 X49.51 Y108.294 E25.87118
G1 X48.838 Y103.032 E26.04762
G1 X47.863 Y97.775 E26.22545
G1 X47.288 Y95.269 E26.31097
G1 X46.627 Y92.726 E26.39836
G1 X45.065 Y87.612 E26.57621
G1 X43.235 Y82.649 E26.75214
G1 X41.135 Y77.813 E26.9275
G1 X38.744 Y73.063 E27.10437
G1 X36.101 Y68.477 E27.28042
G1 X33.205 Y64.051 E27.45634
G1 X30.063 Y59.796 E27.63227
G1 X26.681 Y55.72 E27.80842
G1 X23.047 Y51.811 E27.98594
G1 X21.19 Y49.977 E28.07275
G1 X18.173 Y47.198 E28.20918
G1 X17.675 Y46.685 E28.23296
G1 X17.237 Y46.119 E28.25676
G1 X16.865 Y45.508 E28.28055
G1 X16.564 Y44.86 E28.30432
G1 X16.336 Y44.182 E28.32811
G1 X16.186 Y43.482 E28.35192
G1 X16.109 Y42.491 E28.38498
G1 X16.109 Y22.509 E29.04958
G1 X16.149 Y21.795 E29.07337
G1 X16.268 Y21.09 E29.09715
G1 X16.466 Y20.402 E29.12096
G1 X16.739 Y19.741 E29.14475
G1 X17.083 Y19.114 E29.16853
G1 X17.496 Y18.53 E29.19232
G1 X17.971 Y17.996 E29.21609
M204 S5000
M205 X30 Y30
G0 F3600 X18.365 Y18.17
M204 S500
M205 X15 Y15
G1 F1800 X18.893 Y17.721 E29.23915
G1 X19.468 Y17.336 E29.26216
G1 X20.085 Y17.021 E29.2852
G1 X20.733 Y16.778 E29.30822
G1 X21.406 Y16.611 E29.33128
G1 X22.092 Y16.523 E29.35429
G1 X22.509 Y16.509 E29.36817
G1 X42.495 Y16.51 E30.0329
G1 X43.187 Y16.55 E30.05596
G1 X43.869 Y16.669 E30.07898
G1 X44.533 Y16.867 E30.10203
G1 X45.169 Y17.139 E30.12504
G1 X45.77 Y17.483 E30.14807
G1 X46.328 Y17.894 E30.17112
G1 X46.903 Y18.439 E30.19747
G1 X49.635 Y21.397 E30.33139
G1 X53.435 Y25.144 E30.50889
G1 X57.428 Y28.657 E30.68578
G1 X61.61 Y31.937 E30.86255
G1 X65.976 Y34.978 E31.03952
G1 X70.49 Y37.759 E31.21586
G1 X75.183 Y40.295 E31.39328
G1 X80.044 Y42.576 E31.57188
G1 X82.364 Y43.548 E31.65554
G1 X87.426 Y45.42 E31.83505
G1 X92.525 Y46.982 E32.01242
G1 X97.741 Y48.265 E32.19107
G1 X100.232 Y48.763 E32.27557
G1 X105.54 Y49.598 E32.45428
G1 X110.809 Y50.124 E32.6304
G1 X116.154 Y50.352 E32.80834
G1 X121.449 Y50.28 E32.98447
G1 X126.748 Y49.908 E33.16114
G1 X132.04 Y49.232 E33.33859
G1 X137.296 Y48.257 E33.51639
G1 X139.807 Y47.681 E33.60207
G1 X142.393 Y47.009 E33.69094
G1 X147.505 Y45.447 E33.86872
G1 X152.506 Y43.604 E34.04599
G1 X157.368 Y41.492 E34.2223
G1 X162.125 Y39.098 E34.39943
G1 X166.728 Y36.444 E34.57615
G1 X171.169 Y33.54 E34.75263
G1 X175.464 Y30.368 E34.93022
G1 X179.544 Y26.982 E35.10657
G1 X183.464 Y23.338 E35.28458
G1 X185.305 Y21.474 E35.37172
G1 X188.096 Y18.444 E35.50873
G1 X188.594 Y17.962 E35.53178
G1 X189.144 Y17.542 E35.5548
G1 X189.739 Y17.187 E35.57785
G1 X190.37 Y16.903 E35.60086
G1 X191.03 Y16.694 E35.62389
G1 X191.71 Y16.562 E35.64693
G1 X192.509 Y16.509 E35.67356
G1 X212.491 Y16.509 E36.33816
G1 X213.182 Y16.549 E36.36118
G1 X213.865 Y16.668 E36.38424
G1 X214.528 Y16.866 E36.40726
G1 X215.165 Y17.138 E36.43029
G1 X215.766 Y17.482 E36.45333
G1 X216.324 Y17.893 E36.47638
G1 X216.83 Y18.365 E36.49939
G1 X217.279 Y18.893 E36.52244
G1 X217.664 Y19.468 E36.54546
G1 X217.979 Y20.085 E36.5685
G1 X218.222 Y20.733 E36.59152
G1 X218.389 Y21.406 E36.61458
G1 X218.477 Y22.092 E36.63758
G1 X218.491 Y22.509 E36.65146
G1 X218.49 Y42.495 E37.3162
G1 X218.45 Y43.187 E37.33925
G1 X218.331 Y43.869 E37.36228
G1 X218.133 Y44.533 E37.38533
G1 X217.861 Y45.169 E37.40833
G1 X217.517 Y45.77 E37.43136
G1 X217.106 Y46.328 E37.45441
G1 X216.561 Y46.903 E37.48076
G1 X213.603 Y49.635 E37.61469
G1 X209.856 Y53.435 E37.79219
G1 X206.343 Y57.428 E37.96908
G1 X203.063 Y61.61 E38.14585
G1 X200.022 Y65.976 E38.32282
G1 X197.241 Y70.49 E38.49916
G1 X194.705 Y75.183 E38.67658
G1 X192.424 Y80.044 E38.85517
G1 X191.452 Y82.364 E38.93884
G1 X189.58 Y87.426 E39.11834
G1 X188.018 Y92.525 E39.29572
G1 X186.735 Y97.741 E39.47437
G1 X186.237 Y100.232 E39.55886
G1 X185.402 Y105.54 E39.73758
G1 X184.876 Y110.809 E39.9137
G1 X184.648 Y116.154 E40.09163
G1 X184.72 Y121.449 E40.26776
G1 X185.092 Y126.748 E40.44444
G1 X185.768 Y132.04 E40.62188
G1 X186.743 Y137.296 E40.79968
G1 X187.319 Y139.807 E40.88537
G1 X187.991 Y142.393 E40.97423
G1 X189.553 Y147.505 E41.15202
G1 X191.396 Y152.506 E41.32929
G1 X193.508 Y157.368 E41.5056
G1 X195.902 Y162.125 E41.68272
G1 X198.556 Y166.728 E41.85945
G1 X201.46 Y171.169 E42.03593
G1 X204.632 Y175.464 E42.21352
G1 X208.018 Y179.544 E42.38986
G1 X211.662 Y183.464 E42.56788
G1 X213.523 Y185.302 E42.65487
G1 X216.501 Y188.042 E42.78947
G1 X216.982 Y188.539 E42.81247
G1 X217.403 Y189.089 E42.83551
G1 X217.759 Y189.684 E42.85857
G1 X218.043 Y190.315 E42.88158
G1 X218.252 Y190.975 E42.90461
G1 X218.357 Y191.473 E42.92154
G1 X218.419 Y191.846 E42.93411
G1 X218.5 Y192.833 E42.96705
G1 X218.491 Y212.494 E43.62098
G1 X218.451 Y213.185 E43.644
G1 X218.331 Y213.867 E43.66703
G1 X218.134 Y214.531 E43.69007
G1 X217.861 Y215.168 E43.71312
G1 X217.517 Y215.769 E43.73615
G1 X217.106 Y216.326 E43.75918
G1 X216.633 Y216.832 E43.78221
G1 X216.105 Y217.28 E43.80524
G1 X215.529 Y217.665 E43.82829
G1 X214.913 Y217.981 E43.85131
G1 X214.264 Y218.223 E43.87435
G1 X213.592 Y218.389 E43.89737
G1 X212.905 Y218.477 E43.92041
G1 X212.491 Y218.491 E43.93419
G1 X192.505 Y218.49 E44.59893
G1 X191.813 Y218.45 E44.62198
G1 X191.131 Y218.331 E44.64501
G1 X190.467 Y218.133 E44.66805
G1 X189.831 Y217.861 E44.69106
G1 X189.23 Y217.517 E44.71409
G1 X188.672 Y217.106 E44.73714
G1 X188.097 Y216.561 E44.76349
G1 X185.365 Y213.603 E44.89742
G1 X181.565 Y209.856 E45.07491
G1 X177.572 Y206.343 E45.25181
G1 X173.39 Y203.063 E45.42858
G1 X169.024 Y200.022 E45.60554
G1 X164.51 Y197.241 E45.78189
G1 X159.817 Y194.705 E45.95931
G1 X154.956 Y192.424 E46.1379
G1 X152.635 Y191.451 E46.22161
G1 X147.574 Y189.58 E46.40107
G1 X142.475 Y188.018 E46.57844
G1 X137.259 Y186.735 E46.7571
G1 X134.768 Y186.237 E46.84159
G1 X129.46 Y185.402 E47.02031
G1 X124.191 Y184.876 E47.19642
G1 X118.846 Y184.648 E47.37436
G1 X113.551 Y184.72 E47.55049
G1 X108.252 Y185.092 E47.72717
G1 X102.96 Y185.768 E47.90461
G1 X97.704 Y186.743 E48.08241
G1 X95.193 Y187.319 E48.16809
G1 X92.607 Y187.991 E48.25696
G1 X87.495 Y189.553 E48.43475
G1 X82.494 Y191.396 E48.61202
G1 X77.632 Y193.508 E48.78833
G1 X72.875 Y195.902 E48.96545
G1 X68.272 Y198.556 E49.14217
G1 X63.831 Y201.46 E49.31866
G1 X59.536 Y204.632 E49.49624
G1 X55.456 Y208.018 E49.67259
G1 X51.536 Y211.662 E49.8506
G1 X49.695 Y213.526 E49.93774
G1 X46.904 Y216.556 E50.07476
G1 X46.406 Y217.038 E50.09781
G1 X45.856 Y217.458 E50.12082
G1 X45.261 Y217.813 E50.14387
G1 X44.63 Y218.097 E50.16688
G1 X43.97 Y218.306 E50.18991
G1 X43.29 Y218.438 E50.21295
G1 X42.491 Y218.491 E50.23958
G1 X22.509 Y218.491 E50.90419
G1 X21.818 Y218.451 E50.92721
G1 X21.135 Y218.332 E50.95027
G1 X20.472 Y218.134 E50.97328
G1 X19.835 Y217.862 E50.99632
G1 X19.234 Y217.518 E51.01935
G1 X18.676 Y217.107 E51.0424
G1 X18.17 Y216.635 E51.06541
G1 X17.721 Y216.107 E51.08847
G1 X17.336 Y215.532 E51.11148
G1 X17.021 Y214.915 E51.13452
G1 X16.778 Y214.267 E51.15754
G1 X16.611 Y213.594 E51.18061
G1 X16.523 Y212.908 E51.20361
G1 X16.509 Y212.491 E51.21749
G1 X16.51 Y192.505 E51.88222
G1 X16.55 Y191.813 E51.90528
G1 X16.669 Y191.131 E51.9283
G1 X16.867 Y190.467 E51.95135
G1 X17.139 Y189.831 E51.97436
G1 X17.483 Y189.23 E51.99739
G1 X17.894 Y188.672 E52.02044
G1 X18.439 Y188.097 E52.04679
G1 X21.397 Y185.365 E52.18071
G1 X25.144 Y181.565 E52.35821
G1 X28.657 Y177.572 E52.5351
G1 X31.937 Y173.39 E52.71188
G1 X34.978 Y169.024 E52.88884
G1 X37.759 Y164.51 E53.06518
G1 X40.295 Y159.817 E53.24261
G1 X42.576 Y154.956 E53.4212
G1 X43.548 Y152.636 E53.50486
G1 X45.42 Y147.574 E53.68437
G1 X46.982 Y142.475 E53.86174
G1 X48.265 Y137.259 E54.0404
G1 X48.763 Y134.768 E54.12489
G1 X49.598 Y129.46 E54.3036
G1 X50.124 Y124.191 E54.47972
G1 X50.352 Y118.846 E54.65766
G1 X50.28 Y113.551 E54.83379
G1 X49.908 Y108.252 E55.01047
G1 X49.232 Y102.96 E55.18791
G1 X48.257 Y97.704 E55.36571
G1 X47.681 Y95.193 E55.45139
G1 X47.009 Y92.607 E55.54026
G1 X45.447 Y87.495 E55.71804
G1 X43.604 Y82.494 E55.89531
G1 X41.492 Y77.632 E56.07162
G1 X39.098 Y72.875 E56.24875
G1 X36.444 Y68.272 E56.42547
G1 X33.54 Y63.831 E56.60195
G1 X30.368 Y59.536 E56.77954
G1 X26.982 Y55.456 E56.95589
G1 X23.338 Y51.536 E57.1339
G1 X21.474 Y49.695 E57.22104
G1 X18.444 Y46.904 E57.35805
G1 X17.962 Y46.406 E57.3811
G1 X17.542 Y45.856 E57.40412
G1 X17.187 Y45.261 E57.42717
G1 X16.903 Y44.63 E57.45018
G1 X16.694 Y43.97 E57.47321
G1 X16.562 Y43.29 E57.49625
G1 X16.509 Y42.491 E57.52288
G1 X16.509 Y22.509 E58.18748
G1 X16.549 Y21.818 E58.2105
G1 X16.668 Y21.135 E58.23356
G1 X16.866 Y20.472 E58.25658
G1 X17.138 Y19.835 E58.27961
G1 X17.482 Y19.234 E58.30265
G1 X17.893 Y18.676 E58.3257
G1 X18.365 Y18.17 E58.34871
M204 S5000
M205 X30 Y30
G0 F3600 X18.758 Y18.351
M204 S500
M205 X15 Y15
G1 F1800 X19.28 Y17.933 E58.37095
G1 X19.849 Y17.581 E58.39321
