; generated by PrusaSlicer 2.3.0+linux-x64 on 2021-01-23 at 22:17:53 UTC

; 

; external perimeters extrusion width = 0.45mm
; perimeters extrusion width = 0.45mm
; infill extrusion width = 0.45mm
; solid infill extrusion width = 0.45mm
; top infill extrusion width = 0.40mm
; first layer extrusion width = 0.42mm

M201 X500 Y500 Z100 E5000 ; sets maximum accelerations, mm/sec^2
M203 X500 Y500 Z10 E60 ; sets maximum feedrates, mm/sec
M204 P500 R1000 T500 ; sets acceleration (P, T) and retract acceleration (R), mm/sec^2
M205 X8.00 Y8.00 Z0.40 E5.00 ; sets the jerk limits, mm/sec
M205 S0 T0 ; sets the minimum extruding and travel feed rate, mm/sec
M107
;TYPE:Custom
G90 ; use absolute coordinates
M83 ; extruder relative mode
M104 S205 ; set extruder temp
M140 S60 ; set bed temp
M190 S60 ; wait for bed temp
M109 S205 ; wait for extruder temp
G28 ; home all
G1 Z2 F240
G1 X2 Y10 F3000
G1 Z0.28 F240
G92 E0
G1 Y190 E15 F1500 ; intro line
G1 X2.3 F5000
G92 E0
G1 Y10 E15 F1200 ; intro line
G92 E0
G21 ; set units to millimeters
G90 ; use absolute coordinates
M83 ; use relative distances for extrusion
; Filament gcode
;LAYER_CHANGE
;Z:0.2
;HEIGHT:0.2
;BEFORE_LAYER_CHANGE
G92 E0
;0.2


G1 E-5.00000 F3600.000
G1 Z0.200 F9000.000
;AFTER_LAYER_CHANGE
;0.2
G1 X89.586 Y90.326
G1 E5.00000 F2400.000
;TYPE:Skirt
;WIDTH:0.42
G1 F1200.000
G1 X160.004 Y90.290 E2.20791
G1 X160.895 Y90.465 E0.02849
G1 X161.659 Y90.964 E0.02860
G1 X162.178 Y91.715 E0.02860
G1 X162.376 Y92.601 E0.02849
G1 X162.348 Y103.039 E0.32726
G1 X162.123 Y103.736 E0.02296
G1 X161.697 Y104.331 E0.02296
G1 X161.107 Y104.771 E0.02308
G1 X160.414 Y105.008 E0.02296
G1 X89.939 Y105.043 E2.20970
G1 X89.147 Y104.886 E0.02532
G1 X88.451 Y104.470 E0.02543
G1 X87.935 Y103.844 E0.02543
G1 X87.659 Y103.081 E0.02543
G1 X87.650 Y92.310 E0.33771
G1 X87.872 Y91.609 E0.02308
G1 X88.300 Y91.006 E0.02319
G1 X88.890 Y90.565 E0.02308
G1 X89.529 Y90.346 E0.02119
G1 E-3.50000 F3600.000
;WIPE_START
G1 F7200.000
G1 X92.529 Y90.343 E-1.42500
;WIPE_END
G1 E-0.07500 F3600.000
G1 X90.687 Y93.354 F9000.000
G1 E5.00000 F2400.000
;TYPE:Perimeter
G1 F1200.000
G1 X159.313 Y93.354 E2.15172
G1 X159.313 Y101.980 E0.27046
G1 X90.687 Y101.980 E2.15172
G1 X90.687 Y93.414 E0.26858
G1 X90.310 Y92.977 F9000.000
;TYPE:External perimeter
G1 F1200.000
G1 X159.690 Y92.977 E2.17536
G1 X159.690 Y102.357 E0.29410
G1 X90.310 Y102.357 E2.17536
G1 X90.310 Y93.037 E0.29222
G1 X90.710 Y92.995 F9000.000
G1 E-3.50000 F3600.000
;WIPE_START
G1 F7200.000
G1 X93.310 Y93.035 E-1.42500
;WIPE_END
G1 E-0.07500 F3600.000
G1 X159.200 Y94.230 F9000.000
G1 E5.00000 F2400.000
;TYPE:Solid infill
;WIDTH:0.42041
G1 F1200.000
G1 X158.606 Y93.637 E0.02634
G1 X158.072 Y93.637 E0.01676
G1 X159.030 Y94.595 E0.04251
G1 X159.030 Y95.128 E0.01676
G1 X157.539 Y93.637 E0.06621
G1 X157.005 Y93.637 E0.01676
G1 X159.030 Y95.662 E0.08990
G1 X159.030 Y96.196 E0.01676
G1 X156.471 Y93.637 E0.11360
G1 X155.937 Y93.637 E0.01676
G1 X159.030 Y96.730 E0.13730
G1 X159.030 Y97.264 E0.01676
G1 X155.403 Y93.637 E0.16100
G1 X154.869 Y93.637 E0.01676
G1 X159.030 Y97.798 E0.18469
G1 X159.030 Y98.332 E0.01676
G1 X154.336 Y93.637 E0.20839
G1 X153.802 Y93.637 E0.01676
G1 X159.030 Y98.865 E0.23209
G1 X159.030 Y99.399 E0.01676
G1 X153.268 Y93.637 E0.25579
G1 X152.734 Y93.637 E0.01676
G1 X159.030 Y99.933 E0.27949
G1 X159.030 Y100.467 E0.01676
G1 X152.200 Y93.637 E0.30318
G1 X151.666 Y93.637 E0.01676
G1 X159.030 Y101.001 E0.32688
G1 X159.030 Y101.535 E0.01676
G1 X151.132 Y93.637 E0.35058
G1 X150.599 Y93.637 E0.01676
G1 X158.659 Y101.697 E0.35779
G1 X158.125 Y101.697 E0.01676
G1 X150.065 Y93.637 E0.35779
G1 X149.531 Y93.637 E0.01676
G1 X157.591 Y101.697 E0.35779
G1 X157.057 Y101.697 E0.01676
G1 X148.997 Y93.637 E0.35779
G1 X148.463 Y93.637 E0.01676
G1 X156.523 Y101.697 E0.35779
G1 X155.990 Y101.697 E0.01676
G1 X147.929 Y93.637 E0.35779
G1 X147.395 Y93.637 E0.01676
G1 X155.456 Y101.697 E0.35779
G1 X154.922 Y101.697 E0.01676
G1 X146.862 Y93.637 E0.35779
G1 X146.328 Y93.637 E0.01676
G1 X154.388 Y101.697 E0.35779
G1 X153.854 Y101.697 E0.01676
G1 X145.794 Y93.637 E0.35779
G1 X145.260 Y93.637 E0.01676
G1 X153.320 Y101.697 E0.35779
G1 X152.786 Y101.697 E0.01676
G1 X144.726 Y93.637 E0.35779
G1 X144.192 Y93.637 E0.01676
G1 X152.253 Y101.697 E0.35779
G1 X151.719 Y101.697 E0.01676
G1 X143.659 Y93.637 E0.35779
G1 X143.125 Y93.637 E0.01676
G1 X151.185 Y101.697 E0.35779
G1 X150.651 Y101.697 E0.01676
G1 X142.591 Y93.637 E0.35779
G1 X142.057 Y93.637 E0.01676
G1 X150.117 Y101.697 E0.35779
G1 X149.583 Y101.697 E0.01676
G1 X141.523 Y93.637 E0.35779
G1 X140.989 Y93.637 E0.01676
G1 X149.049 Y101.697 E0.35779
G1 X148.516 Y101.697 E0.01676
G1 X140.455 Y93.637 E0.35779
G1 X139.922 Y93.637 E0.01676
G1 X147.982 Y101.697 E0.35779
G1 X147.448 Y101.697 E0.01676
G1 X139.388 Y93.637 E0.35779
G1 X138.854 Y93.637 E0.01676
G1 X146.914 Y101.697 E0.35779
G1 X146.380 Y101.697 E0.01676
G1 X138.320 Y93.637 E0.35779
G1 X137.786 Y93.637 E0.01676
G1 X145.846 Y101.697 E0.35779
G1 X145.313 Y101.697 E0.01676
G1 X137.252 Y93.637 E0.35779
G1 X136.718 Y93.637 E0.01676
G1 X144.779 Y101.697 E0.35779
G1 X144.245 Y101.697 E0.01676
G1 X136.185 Y93.637 E0.35779
G1 X135.651 Y93.637 E0.01676
G1 X143.711 Y101.697 E0.35779
G1 X143.177 Y101.697 E0.01676
G1 X135.117 Y93.637 E0.35779
G1 X134.583 Y93.637 E0.01676
G1 X142.643 Y101.697 E0.35779
G1 X142.109 Y101.697 E0.01676
G1 X134.049 Y93.637 E0.35779
G1 X133.515 Y93.637 E0.01676
G1 X141.576 Y101.697 E0.35779
G1 X141.042 Y101.697 E0.01676
G1 X132.981 Y93.637 E0.35779
G1 X132.448 Y93.637 E0.01676
G1 X140.508 Y101.697 E0.35779
G1 X139.974 Y101.697 E0.01676
G1 X131.914 Y93.637 E0.35779
G1 X131.380 Y93.637 E0.01676
G1 X139.440 Y101.697 E0.35779
G1 X138.906 Y101.697 E0.01676
G1 X130.846 Y93.637 E0.35779
G1 X130.312 Y93.637 E0.01676
G1 X138.372 Y101.697 E0.35779
G1 X137.839 Y101.697 E0.01676
G1 X129.778 Y93.637 E0.35779
G1 X129.245 Y93.637 E0.01676
G1 X137.305 Y101.697 E0.35779
G1 X136.771 Y101.697 E0.01676
G1 X128.711 Y93.637 E0.35779
G1 X128.177 Y93.637 E0.01676
G1 X136.237 Y101.697 E0.35779
G1 X135.703 Y101.697 E0.01676
G1 X127.643 Y93.637 E0.35779
G1 X127.109 Y93.637 E0.01676
G1 X135.169 Y101.697 E0.35779
G1 X134.636 Y101.697 E0.01676
G1 X126.575 Y93.637 E0.35779
G1 X126.041 Y93.637 E0.01676
G1 X134.102 Y101.697 E0.35779
G1 X133.568 Y101.697 E0.01676
G1 X125.508 Y93.637 E0.35779
G1 X124.974 Y93.637 E0.01676
G1 X133.034 Y101.697 E0.35779
G1 X132.500 Y101.697 E0.01676
G1 X124.440 Y93.637 E0.35779
G1 X123.906 Y93.637 E0.01676
G1 X131.966 Y101.697 E0.35779
G1 X131.432 Y101.697 E0.01676
G1 X123.372 Y93.637 E0.35779
G1 X122.838 Y93.637 E0.01676
G1 X130.899 Y101.697 E0.35779
G1 X130.365 Y101.697 E0.01676
G1 X122.304 Y93.637 E0.35779
G1 X121.771 Y93.637 E0.01676
G1 X129.831 Y101.697 E0.35779
G1 X129.297 Y101.697 E0.01676
G1 X121.237 Y93.637 E0.35779
G1 X120.703 Y93.637 E0.01676
G1 X128.763 Y101.697 E0.35779
G1 X128.229 Y101.697 E0.01676
G1 X120.169 Y93.637 E0.35779
G1 X119.635 Y93.637 E0.01676
G1 X127.695 Y101.697 E0.35779
G1 X127.162 Y101.697 E0.01676
G1 X119.101 Y93.637 E0.35779
G1 X118.567 Y93.637 E0.01676
G1 X126.628 Y101.697 E0.35779
G1 X126.094 Y101.697 E0.01676
G1 X118.034 Y93.637 E0.35779
G1 X117.500 Y93.637 E0.01676
G1 X125.560 Y101.697 E0.35779
G1 X125.026 Y101.697 E0.01676
G1 X116.966 Y93.637 E0.35779
G1 X116.432 Y93.637 E0.01676
G1 X124.492 Y101.697 E0.35779
G1 X123.958 Y101.697 E0.01676
G1 X115.898 Y93.637 E0.35779
G1 X115.364 Y93.637 E0.01676
G1 X123.425 Y101.697 E0.35779
G1 X122.891 Y101.697 E0.01676
G1 X114.831 Y93.637 E0.35779
G1 X114.297 Y93.637 E0.01676
G1 X122.357 Y101.697 E0.35779
G1 X121.823 Y101.697 E0.01676
G1 X113.763 Y93.637 E0.35779
G1 X113.229 Y93.637 E0.01676
G1 X121.289 Y101.697 E0.35779
G1 X120.755 Y101.697 E0.01676
G1 X112.695 Y93.637 E0.35779
G1 X112.161 Y93.637 E0.01676
G1 X120.222 Y101.697 E0.35779
G1 X119.688 Y101.697 E0.01676
G1 X111.627 Y93.637 E0.35779
G1 X111.094 Y93.637 E0.01676
G1 X119.154 Y101.697 E0.35779
G1 X118.620 Y101.697 E0.01676
G1 X110.560 Y93.637 E0.35779
G1 X110.026 Y93.637 E0.01676
G1 X118.086 Y101.697 E0.35779
G1 X117.552 Y101.697 E0.01676
G1 X109.492 Y93.637 E0.35779
G1 X108.958 Y93.637 E0.01676
G1 X117.018 Y101.697 E0.35779
G1 X116.485 Y101.697 E0.01676
G1 X108.424 Y93.637 E0.35779
G1 X107.890 Y93.637 E0.01676
G1 X115.951 Y101.697 E0.35779
G1 X115.417 Y101.697 E0.01676
G1 X107.357 Y93.637 E0.35779
G1 X106.823 Y93.637 E0.01676
G1 X114.883 Y101.697 E0.35779
G1 X114.349 Y101.697 E0.01676
G1 X106.289 Y93.637 E0.35779
G1 X105.755 Y93.637 E0.01676
G1 X113.815 Y101.697 E0.35779
G1 X113.281 Y101.697 E0.01676
G1 X105.221 Y93.637 E0.35779
G1 X104.687 Y93.637 E0.01676
G1 X112.748 Y101.697 E0.35779
G1 X112.214 Y101.697 E0.01676
G1 X104.154 Y93.637 E0.35779
G1 X103.620 Y93.637 E0.01676
G1 X111.680 Y101.697 E0.35779
G1 X111.146 Y101.697 E0.01676
G1 X103.086 Y93.637 E0.35779
G1 X102.552 Y93.637 E0.01676
G1 X110.612 Y101.697 E0.35779
G1 X110.078 Y101.697 E0.01676
G1 X102.018 Y93.637 E0.35779
G1 X101.484 Y93.637 E0.01676
G1 X109.544 Y101.697 E0.35779
G1 X109.011 Y101.697 E0.01676
G1 X100.950 Y93.637 E0.35779
G1 X100.417 Y93.637 E0.01676
G1 X108.477 Y101.697 E0.35779
G1 X107.943 Y101.697 E0.01676
G1 X99.883 Y93.637 E0.35779
G1 X99.349 Y93.637 E0.01676
G1 X107.409 Y101.697 E0.35779
G1 X106.875 Y101.697 E0.01676
G1 X98.815 Y93.637 E0.35779
G1 X98.281 Y93.637 E0.01676
G1 X106.341 Y101.697 E0.35779
G1 X105.808 Y101.697 E0.01676
G1 X97.747 Y93.637 E0.35779
G1 X97.213 Y93.637 E0.01676
G1 X105.274 Y101.697 E0.35779
G1 X104.740 Y101.697 E0.01676
G1 X96.680 Y93.637 E0.35779
G1 X96.146 Y93.637 E0.01676
G1 X104.206 Y101.697 E0.35779
G1 X103.672 Y101.697 E0.01676
G1 X95.612 Y93.637 E0.35779
G1 X95.078 Y93.637 E0.01676
G1 X103.138 Y101.697 E0.35779
G1 X102.604 Y101.697 E0.01676
G1 X94.544 Y93.637 E0.35779
G1 X94.010 Y93.637 E0.01676
G1 X102.071 Y101.697 E0.35779
G1 X101.537 Y101.697 E0.01676
G1 X93.476 Y93.637 E0.35779
G1 X92.943 Y93.637 E0.01676
G1 X101.003 Y101.697 E0.35779
G1 X100.469 Y101.697 E0.01676
G1 X92.409 Y93.637 E0.35779
G1 X91.875 Y93.637 E0.01676
G1 X99.935 Y101.697 E0.35779
G1 X99.401 Y101.697 E0.01676
G1 X91.341 Y93.637 E0.35779
G1 X90.970 Y93.637 E0.01165
G1 X90.970 Y93.800 E0.00511
G1 X98.867 Y101.697 E0.35057
G1 X98.334 Y101.697 E0.01676
G1 X90.970 Y94.334 E0.32688
G1 X90.970 Y94.867 E0.01676
G1 X97.800 Y101.697 E0.30318
G1 X97.266 Y101.697 E0.01676
G1 X90.970 Y95.401 E0.27948
G1 X90.970 Y95.935 E0.01676
G1 X96.732 Y101.697 E0.25578
G1 X96.198 Y101.697 E0.01676
G1 X90.970 Y96.469 E0.23209
G1 X90.970 Y97.003 E0.01676
G1 X95.664 Y101.697 E0.20839
G1 X95.130 Y101.697 E0.01676
G1 X90.970 Y97.537 E0.18469
G1 X90.970 Y98.070 E0.01676
G1 X94.597 Y101.697 E0.16099
G1 X94.063 Y101.697 E0.01676
G1 X90.970 Y98.604 E0.13729
G1 X90.970 Y99.138 E0.01676
G1 X93.529 Y101.697 E0.11360
G1 X92.995 Y101.697 E0.01676
G1 X90.970 Y99.672 E0.08990
G1 X90.970 Y100.206 E0.01676
G1 X92.461 Y101.697 E0.06620
G1 X91.927 Y101.697 E0.01676
G1 X90.970 Y100.740 E0.04250
G1 X90.970 Y101.274 E0.01676
G1 X91.563 Y101.867 E0.02634
M106 S255
;LAYER_CHANGE
;Z:0.4
;HEIGHT:0.2
;BEFORE_LAYER_CHANGE
G92 E0
;0.4


G1 E-3.50000 F3600.000
;WIPE_START
G1 F7200.000
G1 X90.970 Y101.274 E-0.39858
G1 X90.970 Y100.740 E-0.25358
G1 X91.927 Y101.697 E-0.64321
G1 X92.200 Y101.697 E-0.12963
;WIPE_END
G1 E-0.07500 F3600.000
G1 Z0.400 F9000.000
;AFTER_LAYER_CHANGE
;0.4
M104 S200 ; set temperature
G1 X89.147 Y104.886
G1 E5.00000 F2400.000
;TYPE:Skirt
;WIDTH:0.42
G1 X88.451 Y104.470 E0.02543
G1 X87.935 Y103.844 E0.02543
G1 X87.659 Y103.081 E0.02543
G1 X87.650 Y92.310 E0.33771
G1 X87.872 Y91.609 E0.02308
G1 X88.300 Y91.006 E0.02319
G1 X88.890 Y90.565 E0.02308
G1 X89.586 Y90.326 E0.02308
G1 X160.004 Y90.290 E2.20791
G1 X160.895 Y90.465 E0.02849
G1 X161.659 Y90.964 E0.02860
G1 X162.178 Y91.715 E0.02860
G1 X162.376 Y92.601 E0.02849
G1 X162.348 Y103.039 E0.32726
G1 X162.123 Y103.736 E0.02296
G1 X161.697 Y104.331 E0.02296
G1 X161.107 Y104.771 E0.02308
G1 X160.414 Y105.008 E0.02296
G1 X89.939 Y105.043 E2.20970
G1 X89.206 Y104.898 E0.02343
G1 E-3.50000 F3600.000
;WIPE_START
G1 F7200.000
G1 X88.451 Y104.470 E-0.41225
G1 X87.935 Y103.844 E-0.38529
G1 X87.659 Y103.081 E-0.38529
G1 X87.659 Y102.571 E-0.24217
;WIPE_END
G1 E-0.07500 F3600.000
G1 X90.632 Y102.035 F9000.000
G1 E5.00000 F2400.000
;TYPE:Perimeter
;WIDTH:0.45
G1 X90.632 Y93.299 E0.29570
G1 X159.368 Y93.299 E2.32663
G1 X159.368 Y102.035 E0.29570
G1 X90.692 Y102.035 E2.32460
G1 X90.225 Y102.442 F9000.000
;TYPE:External perimeter
G1 F1500.000
G1 X90.225 Y92.892 E0.32326
G1 X159.775 Y92.892 E2.35418
G1 X159.775 Y102.442 E0.32326
G1 X90.285 Y102.442 E2.35215
G1 X90.409 Y102.087 F9000.000
G1 E-3.50000 F3600.000
;WIPE_START
G1 F7200.000
G1 X90.266 Y99.442 E-1.42500
;WIPE_END
G1 E-0.07500 F3600.000
G1 X158.417 Y101.913 F9000.000
G1 E5.00000 F2400.000
;TYPE:Solid infill
;WIDTH:0.452641
G1 X159.063 Y101.268 E0.03109
G1 X159.063 Y100.688 E0.01974
G1 X158.021 Y101.730 E0.05018
G1 X157.442 Y101.730 E0.01974
G1 X159.063 Y100.109 E0.07810
G1 X159.063 Y99.529 E0.01974
G1 X156.862 Y101.730 E0.10602
G1 X156.283 Y101.730 E0.01974
G1 X159.063 Y98.950 E0.13393
G1 X159.063 Y98.370 E0.01974
G1 X155.703 Y101.730 E0.16185
G1 X155.124 Y101.730 E0.01974
G1 X159.063 Y97.791 E0.18977
G1 X159.063 Y97.212 E0.01974
G1 X154.544 Y101.730 E0.21769
G1 X153.965 Y101.730 E0.01974
G1 X159.063 Y96.632 E0.24560
G1 X159.063 Y96.053 E0.01974
G1 X153.386 Y101.730 E0.27352
G1 X152.806 Y101.730 E0.01974
G1 X159.063 Y95.473 E0.30144
G1 X159.063 Y94.894 E0.01974
G1 X152.227 Y101.730 E0.32935
G1 X151.647 Y101.730 E0.01974
G1 X159.063 Y94.314 E0.35727
G1 X159.063 Y93.735 E0.01974
G1 X151.068 Y101.730 E0.38519
G1 X150.488 Y101.730 E0.01974
G1 X158.614 Y93.604 E0.39147
G1 X158.034 Y93.604 E0.01974
G1 X149.909 Y101.730 E0.39147
G1 X149.330 Y101.730 E0.01974
G1 X157.455 Y93.604 E0.39147
G1 X156.875 Y93.604 E0.01974
G1 X148.750 Y101.730 E0.39147
G1 X148.171 Y101.730 E0.01974
G1 X156.296 Y93.604 E0.39147
G1 X155.716 Y93.604 E0.01974
G1 X147.591 Y101.730 E0.39147
G1 X147.012 Y101.730 E0.01974
G1 X155.137 Y93.604 E0.39147
G1 X154.558 Y93.604 E0.01974
G1 X146.432 Y101.730 E0.39147
G1 X145.853 Y101.730 E0.01974
G1 X153.978 Y93.604 E0.39147
G1 X153.399 Y93.604 E0.01974
G1 X145.274 Y101.730 E0.39147
G1 X144.694 Y101.730 E0.01974
G1 X152.819 Y93.604 E0.39147
G1 X152.240 Y93.604 E0.01974
G1 X144.115 Y101.730 E0.39147
G1 X143.535 Y101.730 E0.01974
G1 X151.660 Y93.604 E0.39147
G1 X151.081 Y93.604 E0.01974
G1 X142.956 Y101.730 E0.39147
G1 X142.376 Y101.730 E0.01974
G1 X150.502 Y93.604 E0.39147
G1 X149.922 Y93.604 E0.01974
G1 X141.797 Y101.730 E0.39147
G1 X141.217 Y101.730 E0.01974
G1 X149.343 Y93.604 E0.39147
G1 X148.763 Y93.604 E0.01974
G1 X140.638 Y101.730 E0.39147
G1 X140.059 Y101.730 E0.01974
G1 X148.184 Y93.604 E0.39147
G1 X147.604 Y93.604 E0.01974
G1 X139.479 Y101.730 E0.39147
G1 X138.900 Y101.730 E0.01974
G1 X147.025 Y93.604 E0.39147
G1 X146.446 Y93.604 E0.01974
G1 X138.320 Y101.730 E0.39147
G1 X137.741 Y101.730 E0.01974
G1 X145.866 Y93.604 E0.39147
G1 X145.287 Y93.604 E0.01974
G1 X137.161 Y101.730 E0.39147
G1 X136.582 Y101.730 E0.01974
G1 X144.707 Y93.604 E0.39147
G1 X144.128 Y93.604 E0.01974
G1 X136.003 Y101.730 E0.39147
G1 X135.423 Y101.730 E0.01974
G1 X143.548 Y93.604 E0.39147
G1 X142.969 Y93.604 E0.01974
G1 X134.844 Y101.730 E0.39147
G1 X134.264 Y101.730 E0.01974
G1 X142.390 Y93.604 E0.39147
G1 X141.810 Y93.604 E0.01974
G1 X133.685 Y101.730 E0.39147
G1 X133.105 Y101.730 E0.01974
G1 X141.231 Y93.604 E0.39147
G1 X140.651 Y93.604 E0.01974
G1 X132.526 Y101.730 E0.39147
G1 X131.947 Y101.730 E0.01974
G1 X140.072 Y93.604 E0.39147
G1 X139.492 Y93.604 E0.01974
G1 X131.367 Y101.730 E0.39147
G1 X130.788 Y101.730 E0.01974
G1 X138.913 Y93.604 E0.39147
G1 X138.333 Y93.604 E0.01974
G1 X130.208 Y101.730 E0.39147
G1 X129.629 Y101.730 E0.01974
G1 X137.754 Y93.604 E0.39147
G1 X137.175 Y93.604 E0.01974
G1 X129.049 Y101.730 E0.39147
G1 X128.470 Y101.730 E0.01974
G1 X136.595 Y93.604 E0.39147
G1 X136.016 Y93.604 E0.01974
G1 X127.891 Y101.730 E0.39147
G1 X127.311 Y101.730 E0.01974
G1 X135.436 Y93.604 E0.39147
