; generated by PrusaSlicer 2.7.2+win64 on 2024-05-21 at 13:37:03 UTC

; external perimeters extrusion width = 0.65mm
; perimeters extrusion width = 0.65mm
; infill extrusion width = 0.65mm
; solid infill extrusion width = 0.65mm
; top infill extrusion width = 0.60mm
; first layer extrusion width = 0.65mm

M73 P0 R54
M73 Q0 S54
M201 X1000 Y1000 Z200 E5000 ; sets maximum accelerations, mm/sec^2
M203 X200 Y200 Z12 E120 ; sets maximum feedrates, mm / sec
M204 S1250 T1250 ; sets acceleration (S) and retract acceleration (R), mm/sec^2
M205 X8.00 Y8.00 Z0.40 E4.50 ; sets the jerk limits, mm/sec
M205 S0 T0 ; sets the minimum extruding and travel feed rate, mm/sec

; printing object 3dbenchy.stl id:0 copy 0
; stop printing object 3dbenchy.stl id:0 copy 0

;TYPE:Custom
M862.3 P "MK3S" ; printer model check
M862.1 P0.6 ; nozzle diameter check
M115 U3.13.2 ; tell printer latest fw version
G90 ; use absolute coordinates
M83 ; extruder relative mode
M104 S215 ; set extruder temp
M140 S60 ; set bed temp
M190 S60 ; wait for bed temp
M109 S215 ; wait for extruder temp
G28 W ; home all without mesh bed level
G80 X7.2846 Y20.5121 W39.2261 H39.2261 ; mesh bed levelling

G1 Z0.2 F720
G1 Y-3 F1000 ; go outside print area
G92 E0
G1 X60 E9 F1000 ; intro line
G1 X100 E12.5 F1000 ; intro line

G92 E0
M221 S95
G21 ; set units to millimeters
G90 ; use absolute coordinates
M83 ; use relative distances for extrusion

M900 K0.04 ; Filament gcode LA 1.5
M900 K18 ; Filament gcode LA 1.0




M107
;LAYER_CHANGE
;Z:0.3
;HEIGHT:0.3
G1 E-.8 F2100
G1 Z.7 F720
G1 X16.6 Y21.799 F10800
G1 Z.3 F720
G1 E.8 F1500
M204 S800
;TYPE:Skirt/Brim
;WIDTH:0.65
G1 F1200
G1 X17.3 Y21.33 E.06154
G1 X18.048 Y21.01 E.05942
G1 X18.758 Y20.847 E.05321
G1 X19.556 Y20.81 E.05835
G1 X20.278 Y20.908 E.05322
G1 X21.019 Y21.148 E.05689
G1 X21.662 Y21.488 E.05313
G1 X22.203 Y21.895 E.04945
G1 X40.201 Y37.681 E1.74862
G1 X41.823 Y39.361 E.17057
G1 X43.197 Y41.199 E.16762
G1 X44.423 Y43.377 E.18256
G1 X45.352 Y45.725 E.18444
G1 X45.926 Y48.041 E.17428
G1 X46.2 Y50.502 E.18087
G1 X46.208 Y51.912 E.10299
G1 X46.108 Y53.314 E.10266
G1 X45.873 Y54.847 E.11328
G1 X45.578 Y56.103 E.09424
G1 X45.316 Y56.782 E.05316
G1 X44.9 Y57.447 E.05729
G1 X44.441 Y57.941 E.04925
G1 X43.922 Y58.336 E.04764
G1 X42.791 Y58.83 E.09015
G1 X40.398 Y59.298 E.1781
G1 X38.087 Y59.445 E.16914
G1 X35.898 Y59.316 E.16017
G1 X33.769 Y58.934 E.15799
G1 X31.774 Y58.332 E.15221
G1 X29.838 Y57.499 E.15394
G1 X27.97 Y56.424 E.15742
G1 X26.15 Y55.064 E.16595
G1 X24.458 Y53.431 E.17176
G1 X8.261 Y34.89 E1.79824
G1 X7.725 Y33.686 E.09626
G1 X7.605 Y33.062 E.04641
G1 X7.589 Y32.269 E.05793
G1 X7.676 Y31.67 E.04421
G1 X7.892 Y30.975 E.05316
G1 X8.571 Y29.828 E.09736
G1 X16.536 Y21.862 E.82281
M204 S1000
; printing object 3dbenchy.stl id:0 copy 0
;WIPE_START
G1 F8640
G1 X16.6 Y21.799 E-.02074
G1 X17.3 Y21.33 E-.19456
G1 X18.048 Y21.01 E-.18786
G1 X18.758 Y20.847 E-.16821
G1 X19.556 Y20.81 E-.18446
G1 X19.746 Y20.836 E-.04417
;WIPE_END
G1 Z.7 F720
G1 X38.432 Y55.911 F10800
G1 Z.3 F720
G1 E.8 F1500
M204 S800
;TYPE:External perimeter
;WIDTH:0.747685
G1 F1200
G1 X38.121 Y55.937 E.0266
M204 S1000
;WIPE_START
G1 F8640
G1 X38.432 Y55.911 E-.07206
;WIPE_END
G1 E-.72794 F2100
G1 Z.7 F720
G1 X42.734 Y50.267 F10800
G1 Z.3 F720
G1 E.8 F1500
M204 S800
;WIDTH:0.649999
G1 F1200
G1 X42.753 Y51.151 E.06458
G1 X42.715 Y52.045 E.06536
G1 X42.612 Y53.024 E.0719
G1 X42.457 Y53.928 E.06699
G1 X42.269 Y54.699 E.05797
G1 X42.086 Y55.119 E.03346
G1 X41.868 Y55.331 E.02221
G1 X41.585 Y55.471 E.02306
G1 X40.766 Y55.67 E.06156
G1 X39.752 Y55.844 E.07515
;WIDTH:0.656126
G1 X38.974 Y55.928 E.05775
;WIDTH:0.701906
G1 X38.703 Y55.92 E.02156
;WIDTH:0.747685
G1 X38.432 Y55.911 E.02311
G1 X38.593 Y55.791 E.01711
;WIDTH:0.713188
G1 X38.754 Y55.67 E.0163
;WIDTH:0.678692
G1 X38.958 Y55.332 E.03025
;WIDTH:0.649999
G1 X38.989 Y55.002 E.02421
G1 X38.866 Y54.672 E.02572
G1 X38.538 Y54.254 E.03881
G1 X38.091 Y53.846 E.04421
G1 X40.219 Y53.484 E.15767
G1 X40.719 Y53.37 E.03746
G1 X40.971 Y53.262 E.02003
G1 X41.151 Y53.128 E.01639
G1 X41.387 Y52.866 E.02576
G1 X41.505 Y52.585 E.02226
G1 X41.483 Y52.222 E.02656
G1 X41.301 Y51.926 E.02538
G1 X39.917 Y50.532 E.14348
G1 X39.523 Y50.199 E.03768
G1 X39.155 Y50.061 E.02871
;WIDTH:0.690796
G1 X39.04 Y50.058 E.00899
;WIDTH:0.731593
G1 X38.925 Y50.055 E.00957
;WIDTH:0.77239
G1 X38.811 Y50.052 E.01007
;WIDTH:0.814401
G1 X38.739 Y50.067 E.00688
;WIDTH:0.856412
G1 X38.667 Y50.083 E.00729
;WIDTH:0.898423
G1 X38.596 Y50.099 E.00757
;WIDTH:0.940434
G1 X38.524 Y50.115 E.00806
G1 X38.537 Y50.031 E.00929
;WIDTH:0.898423
G1 X38.549 Y49.948 E.00872
;WIDTH:0.856412
G1 X38.562 Y49.865 E.0083
;WIDTH:0.814401
G1 X38.575 Y49.782 E.00786
;WIDTH:0.77239
G1 X38.558 Y49.615 E.01482
;WIDTH:0.731593
G1 X38.54 Y49.449 E.0139
;WIDTH:0.690796
G1 X38.522 Y49.283 E.01305
;WIDTH:0.649999
G1 X38.408 Y49.04 E.01961
G1 X38.283 Y48.931 E.01211
G1 X37.895 Y48.808 E.02973
G1 X37.393 Y48.895 E.03721
G1 X36.812 Y49.149 E.04632
G1 X35.863 Y49.622 E.07745
G1 X36.293 Y48.648 E.07777
G1 X36.502 Y48.278 E.03104
G1 X36.673 Y47.874 E.03204
G1 X36.675 Y47.54 E.0244
G1 X36.515 Y47.165 E.02978
G1 X36.176 Y46.873 E.03268
G1 X35.928 Y46.805 E.01878
G1 X35.66 Y46.865 E.02006
;WIDTH:0.63862
G1 X35.267 Y47.22 E.03793
;WIDTH:0.618594
G1 X35.142 Y47.393 E.01475
;WIDTH:0.645489
G1 X35.017 Y47.565 E.01541
;WIDTH:0.649999
G1 X34.679 Y48.355 E.06276
G1 X34.041 Y49.742 E.11151
G1 X33.81 Y50.302 E.04425
G1 X33.612 Y50.691 E.03188
G1 X33.426 Y50.8 E.01575
G1 X32.576 Y51.146 E.06703
G1 X32.161 Y51.238 E.03105
G1 X31.993 Y51.194 E.01268
G1 X31.516 Y50.969 E.03852
G1 X31.257 Y50.885 E.01989
G1 X30.972 Y50.92 E.02097
G1 X30.698 Y51.13 E.02522
G1 X30.489 Y51.522 E.03245
G1 X30.474 Y51.91 E.02836
G1 X30.522 Y52.069 E.01213
G1 X30.679 Y52.308 E.02089
G1 X31.119 Y52.641 E.0403
G1 X31.604 Y52.84 E.03829
G1 X32 Y52.893 E.02918
G1 X32.521 Y52.811 E.03852
G1 X33.003 Y52.637 E.03743
G1 X34.164 Y52.137 E.09233
G1 X37.186 Y50.694 E.2446
G1 X37.695 Y50.48 E.04033
;WIDTH:0.695301
G1 X37.804 Y50.448 E.00894
;WIDTH:0.740602
G1 X37.913 Y50.417 E.00956
;WIDTH:0.785904
G1 X38.022 Y50.385 E.01022
;WIDTH:0.831205
G1 X38.131 Y50.354 E.01084
;WIDTH:0.876506
G1 X38.24 Y50.322 E.01151
;WIDTH:0.921808
G1 X38.349 Y50.291 E.01212
G1 X38.323 Y50.38 E.00992
;WIDTH:0.872953
G1 X38.297 Y50.469 E.00935
;WIDTH:0.824098
G1 X38.271 Y50.559 E.00888
;WIDTH:0.775244
G1 X38.28 Y50.711 E.0135
;WIDTH:0.733496
G1 X38.29 Y50.863 E.01271
;WIDTH:0.691748
G1 X38.299 Y51.015 E.01191
;WIDTH:0.649999
G1 X38.456 Y51.345 E.02669
G1 X38.779 Y51.731 E.03676
G1 X39.12 Y52.032 E.03322
G1 X36.805 Y52.404 E.17126
G1 X36.294 Y52.564 E.03911
G1 X35.992 Y52.773 E.02683
G1 X35.815 Y52.995 E.02074
G1 X35.686 Y53.433 E.03335
G1 X35.73 Y53.717 E.02099
G1 X35.926 Y53.999 E.02508
G1 X36.328 Y54.362 E.03956
G1 X37.459 Y55.5 E.11719
;WIDTH:0.682102
G1 X37.808 Y55.806 E.03576
;WIDTH:0.726763
G1 X38.121 Y55.937 E.02803
G1 X37.776 Y55.958 E.02856
;WIDTH:0.682102
G1 X37.254 Y55.972 E.04023
;WIDTH:0.649999
G1 X36.362 Y55.913 E.0653
G1 X35.562 Y55.814 E.05888
G1 X34.72 Y55.66 E.06252
G1 X33.882 Y55.454 E.06303
G1 X33.045 Y55.197 E.06395
G1 X32.303 Y54.922 E.0578
G1 X31.428 Y54.536 E.06985
G1 X30.715 Y54.168 E.05861
G1 X29.993 Y53.743 E.06119
G1 X29.337 Y53.307 E.05753
G1 X28.687 Y52.821 E.05928
G1 X28.062 Y52.298 E.05953
G1 X27.487 Y51.759 E.05757
G1 X26.913 Y51.159 E.06065
G1 X11.365 Y33.588 E1.71373
G1 X11.057 Y33.154 E.03887
G1 X10.919 Y32.684 E.03578
G1 X10.933 Y32.373 E.02274
G1 X11.069 Y31.968 E.03121
G1 X11.308 Y31.58 E.03329
G1 X13.79 Y29.094 E.25659
;WIDTH:0.645689
G1 X13.922 Y28.937 E.01487
;WIDTH:0.610875
G1 X14.054 Y28.781 E.01393
;WIDTH:0.576061
G1 X14.185 Y28.625 E.013
;WIDTH:0.541248
G1 X14.668 Y28.12 E.04156
;WIDTH:0.521688
G1 X15.209 Y27.588 E.04328
;WIDTH:0.564513
G1 X15.61 Y27.217 E.03408
;WIDTH:0.607256
G1 X15.826 Y27.031 E.0193
;WIDTH:0.649999
G1 X16.041 Y26.845 E.02077
G1 X18.205 Y24.681 E.22353
G1 X18.607 Y24.349 E.03808
G1 X19.09 Y24.164 E.03778
G1 X19.366 Y24.141 E.02023
G1 X19.831 Y24.239 E.03471
G1 X20.276 Y24.519 E.0384
G1 X37.945 Y40.154 E1.7233
G1 X38.432 Y40.614 E.04893
M73 P0 R53
G1 X39.001 Y41.213 E.06035
G1 X39.561 Y41.873 E.06322
G1 X40.031 Y42.497 E.05706
G1 X40.523 Y43.233 E.06466
G1 X40.995 Y44.044 E.06854
G1 X41.426 Y44.907 E.07046
G1 X41.746 Y45.66 E.05976
G1 X42.037 Y46.474 E.06314
G1 X42.27 Y47.266 E.0603
G1 X42.399 Y47.819 E.04148
G1 X42.528 Y48.493 E.05012
G1 X42.648 Y49.268 E.05728
G1 X42.726 Y50.177 E.06664
M204 S1000
;WIPE_START
G1 F8640
G1 X42.734 Y50.267 E-.02086
G1 X42.753 Y51.151 E-.20417
G1 X42.715 Y52.045 E-.20661
G1 X42.612 Y53.024 E-.2273
G1 X42.509 Y53.626 E-.14106
;WIPE_END
G1 Z.7 F720
G1 X42.093 Y52.433 F10800
G1 Z.3 F720
G1 E.8 F1500
M204 S800
;TYPE:Perimeter
;WIDTH:0.636183
G1 F1200
G1 X42.061 Y52.744 E.0223
M204 S1000
M204 S800
;WIDTH:0.64841
G1 X41.976 Y53.272 E.03896
;WIDTH:0.649999
G1 X41.883 Y53.809 E.03981
G1 X41.684 Y54.625 E.06135
G1 X41.525 Y54.847 E.01995
G1 X41.095 Y54.987 E.03303
G1 X40.162 Y55.183 E.06964
G1 X39.553 Y55.278 E.04502
G1 X39.575 Y54.987 E.02132
G1 X39.497 Y54.647 E.02548
G1 X39.278 Y54.236 E.03402
G1 X40.319 Y54.061 E.0771
G1 X40.849 Y53.941 E.03969
G1 X41.215 Y53.794 E.02881
G1 X41.518 Y53.585 E.02689
G1 X41.853 Y53.219 E.03624
;WIDTH:0.64841
G1 X42.025 Y52.826 E.03125
M204 S1000
;WIPE_START
G1 F8640
G1 X42.061 Y52.744 E-.02068
G1 X41.976 Y53.272 E-.12349
G1 X41.883 Y53.809 E-.12584
G1 X41.684 Y54.625 E-.19394
G1 X41.525 Y54.847 E-.06305
G1 X41.095 Y54.987 E-.10442
G1 X40.38 Y55.137 E-.16858
;WIPE_END
G1 Z.7 F720
G1 X41.177 Y54.408 F10800
G1 Z.3 F720
G1 E.8 F1500
M204 S800
;WIDTH:0.566845
G1 F1200
G1 X40.501 Y54.575 E.04364
;WIDTH:0.560143
G1 X40.069 Y54.651 E.02712
M204 S1000
;WIPE_START
G1 F8640
G1 X40.501 Y54.575 E-.10128
G1 X41.177 Y54.408 E-.16078
;WIPE_END
G1 E-.53794 F2100
G1 Z.7 F720
G1 X37.982 Y51.643 F10800
G1 Z.3 F720
G1 E.8 F1500
M204 S800
;WIDTH:0.603949
G1 F1200
G1 X37.603 Y51.704 E.02583
;WIDTH:0.653132
G1 X37.084 Y51.762 E.03835
;WIDTH:0.693463
G1 X36.987 Y51.759 E.00761
;WIDTH:0.733793
G1 X36.89 Y51.756 E.0081
;WIDTH:0.774124
G1 X36.793 Y51.753 E.00859
;WIDTH:0.814454
G1 X36.696 Y51.75 E.00908
;WIDTH:0.854785
G1 X36.599 Y51.747 E.00957
G1 X36.676 Y51.689 E.0095
;WIDTH:0.814454
G1 X36.753 Y51.63 E.00908
;WIDTH:0.774124
G1 X36.83 Y51.571 E.00859
;WIDTH:0.733793
G1 X36.907 Y51.512 E.0081
;WIDTH:0.693463
G1 X36.984 Y51.453 E.00761
;WIDTH:0.653132
G1 X37.738 Y51.067 E.0622
;WIDTH:0.603949
G1 X37.774 Y51.24 E.01189
G1 X37.941 Y51.563 E.02447
M204 S1000
;WIPE_START
G1 F8640
G1 X37.982 Y51.643 E-.02076
G1 X37.603 Y51.704 E-.08864
G1 X37.084 Y51.762 E-.12058
G1 X36.987 Y51.759 E-.02241
G1 X36.89 Y51.756 E-.02241
G1 X36.793 Y51.753 E-.02241
G1 X36.696 Y51.75 E-.02241
G1 X36.599 Y51.747 E-.02241
G1 X36.676 Y51.689 E-.02226
G1 X36.753 Y51.63 E-.0224
G1 X36.83 Y51.571 E-.0224
G1 X36.907 Y51.512 E-.0224
G1 X36.984 Y51.453 E-.0224
G1 X37.738 Y51.067 E-.19559
G1 X37.774 Y51.24 E-.0408
G1 X37.941 Y51.563 E-.08396
;WIPE_END
G1 E-.02576 F2100
G1 Z.7 F720
G1 X35.836 Y52.07 F10800
G1 Z.3 F720
G1 E.8 F1500
M204 S800
;WIDTH:0.82072
G1 F1200
G1 X36.217 Y51.909 E.03902
;WIDTH:0.854785
G1 X36.599 Y51.747 E.04091
M204 S1000
;WIPE_START
G1 F8640
G1 X36.217 Y51.909 E-.09581
G1 X35.836 Y52.07 E-.09551
;WIPE_END
G1 E-.60868 F2100
G1 Z.7 F720
G1 X29.966 Y46.55 F10800
G1 Z.3 F720
G1 E.8 F1500
M204 S800
;TYPE:External perimeter
;WIDTH:0.895141
G1 F1200
G1 X29.732 Y46.715 E.02967
M204 S1000
;WIPE_START
G1 F8640
G1 X29.966 Y46.55 E-.06611
;WIPE_END
G1 E-.73389 F2100
G1 Z.7 F720
G1 X28.372 Y44.312 F10800
G1 Z.3 F720
G1 E.8 F1500
M204 S800
;WIDTH:0.714351
G1 F1200
G1 X28.606 Y44.237 E.01992
;WIDTH:0.743765
G1 X28.839 Y44.161 E.02077
M204 S1000
G1 X28.839 Y44.161 F10800
G1 X29.327 Y44.259
M204 S800
;WIDTH:0.698915
G1 F1200
G1 X29.367 Y44.267 E.00323
;WIDTH:0.654065
G1 X29.783 Y44.496 E.03493
;WIDTH:0.649999
G1 X30.116 Y44.913 E.03898
G1 X30.184 Y45.045 E.01085
G1 X30.273 Y45.501 E.03394
G1 X30.192 Y45.971 E.03484
;WIDTH:0.699028
G1 X30.147 Y46.087 E.00985
;WIDTH:0.748056
G1 X30.101 Y46.202 E.01056
;WIDTH:0.797084
G1 X30.056 Y46.318 E.01137
;WIDTH:0.846112
G1 X30.011 Y46.434 E.01213
;WIDTH:0.895141
G1 X29.966 Y46.55 E.01289
G1 X30.05 Y46.529 E.00897
;WIDTH:0.856402
G1 X30.133 Y46.509 E.00843
;WIDTH:0.817664
G1 X30.217 Y46.488 E.00813
;WIDTH:0.778926
G1 X30.335 Y46.478 E.01055
;WIDTH:0.73595
G1 X30.453 Y46.468 E.00992
;WIDTH:0.692975
G1 X30.57 Y46.458 E.00921
;WIDTH:0.649999
G1 X31.241 Y46.275 E.0508
G1 X31.756 Y46.186 E.03817
G1 X31.843 Y46.144 E.00706
G1 X31.976 Y45.61 E.0402
G1 X32.295 Y44.537 E.08176
G1 X32.551 Y44.151 E.03383
G1 X32.899 Y43.986 E.02813
G1 X33.26 Y44.014 E.02645
G1 X33.592 Y44.215 E.02835
G1 X33.768 Y44.499 E.0244
G1 X33.812 Y44.946 E.03281
G1 X33.629 Y45.683 E.05547
G1 X34.173 Y45.505 E.04181
G1 X34.659 Y45.501 E.0355
G1 X34.985 Y45.627 E.02553
G1 X35.183 Y45.836 E.02103
G1 X35.272 Y46.159 E.02447
G1 X35.224 Y46.455 E.0219
;WIDTH:0.630122
G1 X35.032 Y46.735 E.02396
;WIDTH:0.616577
G1 X34.786 Y46.921 E.02124
;WIDTH:0.645489
G1 X34.548 Y47.016 E.01857
;WIDTH:0.649999
G1 X33.727 Y47.224 E.06186
G1 X33.288 Y47.357 E.0335
G1 X33.14 Y47.509 E.0155
G1 X33.023 Y47.87 E.02772
G1 X32.779 Y48.849 E.0737
G1 X32.647 Y49.181 E.0261
G1 X32.3 Y49.563 E.03769
G1 X32.032 Y49.662 E.02087
G1 X31.703 Y49.632 E.02413
G1 X31.304 Y49.37 E.03487
G1 X31.167 Y49.126 E.02044
G1 X31.126 Y48.83 E.02183
G1 X31.226 Y48.35 E.03581
G1 X31.379 Y47.817 E.0405
G1 X30.852 Y47.989 E.04049
G1 X30.28 Y48.057 E.04207
G1 X29.945 Y47.965 E.02537
G1 X29.7 Y47.707 E.02599
G1 X29.597 Y47.32 E.02925
;WIDTH:0.692407
G1 X29.608 Y47.196 E.00975
;WIDTH:0.734814
G1 X29.619 Y47.072 E.01041
;WIDTH:0.777221
G1 X29.63 Y46.948 E.01107
;WIDTH:0.825558
G1 X29.681 Y46.831 E.01212
;WIDTH:0.873895
G1 X29.732 Y46.715 E.01279
G1 X29.642 Y46.739 E.0094
;WIDTH:0.83507
G1 X29.553 Y46.764 E.00889
;WIDTH:0.796246
G1 X29.463 Y46.788 E.0085
;WIDTH:0.757422
G1 X29.29 Y46.807 E.01504
;WIDTH:0.721614
G1 X29.116 Y46.826 E.01435
;WIDTH:0.685807
G1 X28.942 Y46.844 E.01356
;WIDTH:0.649999
G1 X28.378 Y46.714 E.04228
G1 X28.002 Y46.441 E.03394
G1 X27.739 Y46.043 E.03484
G1 X27.626 Y45.526 E.03865
G1 X27.732 Y45.018 E.0379
;WIDTH:0.661131
G1 X28.052 Y44.548 E.04232
;WIDTH:0.68286
G1 X28.338 Y44.32 E.02821
G1 X27.809 Y44.377 E.04104
;WIDTH:0.650628
G1 X27.241 Y44.347 E.04159
;WIDTH:0.649999
G1 X26.681 Y44.166 E.04299
G1 X26.001 Y43.722 E.05932
G1 X25.592 Y43.357 E.04004
G1 X25.08 Y42.836 E.05335
G1 X24.639 Y42.451 E.04276
G1 X24.443 Y42.128 E.0276
G1 X24.45 Y41.78 E.02542
G1 X24.577 Y41.494 E.02286
;WIDTH:0.69613
G1 X24.867 Y41.155 E.03515
;WIDTH:0.74226
G1 X25.156 Y40.816 E.03766
;WIDTH:0.743439
G1 X25.545 Y40.43 E.04641
;WIDTH:0.74975
G1 X25.913 Y40.059 E.04467
G1 X26.132 Y39.876 E.0244
;WIDTH:0.699875
G1 X26.35 Y39.693 E.02256
;WIDTH:0.649999
G1 X27.095 Y38.951 E.0768
;WIDTH:0.695399
G1 X27.163 Y38.85 E.00958
;WIDTH:0.740798
G1 X27.232 Y38.75 E.01025
;WIDTH:0.786198
G1 X27.301 Y38.649 E.01101
;WIDTH:0.831597
G1 X27.369 Y38.548 E.01165
;WIDTH:0.876997
G1 X27.438 Y38.448 E.01231
G1 X27.872 Y38.005 E.06286
;WIDTH:0.87335
G1 X27.957 Y37.947 E.01038
;WIDTH:0.828929
G1 X28.042 Y37.889 E.00981
;WIDTH:0.784508
G1 X28.126 Y37.831 E.00917
;WIDTH:0.740088
G1 X28.211 Y37.774 E.00863
;WIDTH:0.695667
G1 X28.296 Y37.716 E.0081
;WIDTH:0.651247
G1 X28.591 Y37.607 E.02302
;WIDTH:0.649999
G1 X29.076 Y37.723 E.03642
G1 X29.395 Y37.968 E.02938
G1 X30.373 Y38.98 E.10279
G1 X30.85 Y39.593 E.05673
G1 X31.099 Y40.069 E.03924
G1 X31.213 Y40.495 E.03221
G1 X31.239 Y40.912 E.03052
G1 X31.175 Y41.405 E.03631
G1 X30.985 Y41.968 E.0434
G1 X30.627 Y42.589 E.05236
G1 X30.014 Y43.292 E.06813
G1 X29.54 Y43.701 E.04573
;WIDTH:0.678236
G1 X29.288 Y43.88 E.02367
;WIDTH:0.706473
G1 X29.035 Y44.058 E.02477
;WIDTH:0.743765
G1 X28.839 Y44.161 E.01876
G1 X29.103 Y44.214 E.02282
;WIDTH:0.698915
G1 X29.239 Y44.241 E.01097
M204 S1000
;WIPE_START
G1 F8640
G1 X29.327 Y44.259 E-.02074
G1 X29.367 Y44.267 E-.00942
G1 X29.783 Y44.496 E-.10965
G1 X30.116 Y44.913 E-.12322
