; generated by PrusaSlicer 2.7.2+win64 on 2024-05-21 at 13:36:09 UTC

; external perimeters extrusion width = 0.65mm
; perimeters extrusion width = 0.65mm
; infill extrusion width = 0.65mm
; solid infill extrusion width = 0.65mm
; top infill extrusion width = 0.60mm
; first layer extrusion width = 0.65mm

M73 P0 R55
M73 Q0 S55
M201 X1000 Y1000 Z200 E5000 ; sets maximum accelerations, mm/sec^2
M203 X200 Y200 Z12 E120 ; sets maximum feedrates, mm / sec
M204 S1250 T1250 ; sets acceleration (S) and retract acceleration (R), mm/sec^2
M205 X8.00 Y8.00 Z0.40 E4.50 ; sets the jerk limits, mm/sec
M205 S0 T0 ; sets the minimum extruding and travel feed rate, mm/sec

; printing object 3dbenchy.stl id:0 copy 0
; stop printing object 3dbenchy.stl id:0 copy 0

;TYPE:Custom
M862.3 P "MK3S" ; printer model check
M862.1 P0.6 ; nozzle diameter check
M115 U3.13.2 ; tell printer latest fw version
G90 ; use absolute coordinates
M83 ; extruder relative mode
M104 S215 ; set extruder temp
M140 S60 ; set bed temp
M190 S60 ; wait for bed temp
M109 S215 ; wait for extruder temp
G28 W ; home all without mesh bed level
G80 X20.9665 Y17.2825 W22.8927 H45.8599 ; mesh bed levelling

G1 Z0.2 F720
G1 Y-3 F1000 ; go outside print area
G92 E0
G1 X60 E9 F1000 ; intro line
G1 X100 E12.5 F1000 ; intro line
M73 P0 R54

G92 E0
M221 S95
G21 ; set units to millimeters
G90 ; use absolute coordinates
M83 ; use relative distances for extrusion

M900 K0.04 ; Filament gcode LA 1.5
M900 K18 ; Filament gcode LA 1.0




M107
;LAYER_CHANGE
;Z:0.3
;HEIGHT:0.3
G1 E-.8 F2100
G1 Z.7 F720
G1 X23.867 Y19.083 F10800
G1 Z.3 F720
G1 E.8 F1500
M204 S800
;TYPE:Skirt/Brim
;WIDTH:0.65
G1 F1200
G1 X24.8 Y18.272 E.09029
G1 X25.998 Y17.74 E.09574
G1 X27.225 Y17.576 E.09042
G1 X37.601 Y17.576 E.75788
G1 X38.39 Y17.643 E.05784
G1 X39.125 Y17.833 E.05545
G1 X39.77 Y18.121 E.05159
G1 X40.42 Y18.558 E.05721
G1 X40.958 Y19.083 E.05491
G1 X41.417 Y19.732 E.05806
G1 X41.727 Y20.401 E.05386
G1 X41.919 Y21.11 E.05365
G1 X43.545 Y45.475 E1.78362
G1 X43.556 Y46.984 E.11022
G1 X43.433 Y48.583 E.11714
G1 X42.946 Y51.109 E.1879
G1 X42.105 Y53.566 E.18969
G1 X40.947 Y55.847 E.18685
G1 X39.45 Y57.989 E.19088
G1 X38.526 Y59.042 E.10233
G1 X37.506 Y60.04 E.10423
G1 X36.435 Y60.937 E.10204
G1 X35.253 Y61.78 E.10604
G1 X34.256 Y62.386 E.08522
G1 X33.55 Y62.678 E.0558
G1 X32.814 Y62.829 E.05488
G1 X31.959 Y62.823 E.06245
G1 X31.295 Y62.684 E.04955
G1 X30.684 Y62.444 E.04795
G1 X28.912 Y61.326 E.15304
G1 X27.097 Y59.834 E.17161
G1 X25.492 Y58.13 E.17098
G1 X24.288 Y56.5 E.14802
G1 X23.189 Y54.585 E.16127
G1 X22.31 Y52.507 E.1648
G1 X21.685 Y50.307 E.16705
G1 X21.335 Y48.04 E.16755
G1 X21.272 Y45.687 E.17193
G1 X22.86 Y21.427 E1.77578
G1 X23.009 Y20.676 E.05592
G1 X23.213 Y20.119 E.04333
G1 X23.819 Y19.159 E.08292
M204 S1000
; printing object 3dbenchy.stl id:0 copy 0
;WIPE_START
G1 F8640
G1 X23.867 Y19.083 E-.02076
G1 X24.8 Y18.272 E-.28544
G1 X25.998 Y17.74 E-.30267
G1 X26.819 Y17.63 E-.19113
;WIPE_END
G1 Z.7 F720
G1 X29.308 Y57.093 F10800
G1 Z.3 F720
G1 E.8 F1500
M204 S800
;TYPE:External perimeter
;WIDTH:0.722721
G1 F1200
G1 X29.167 Y56.953 E.01632
M204 S1000
;WIPE_START
G1 F8640
G1 X29.308 Y57.093 E-.04588
;WIPE_END
G1 E-.75412 F2100
G1 Z.7 F720
G1 X33.339 Y53.138 F10800
G1 Z.3 F720
G1 E.8 F1500
M204 S800
;WIDTH:0.946023
G1 F1200
G1 X33.572 Y53.124 E.02567
M204 S1000
;WIPE_START
G1 F8640
G1 X33.339 Y53.138 E-.0539
;WIPE_END
G1 E-.7461 F2100
G1 Z.7 F720
G1 X33.829 Y44.789 F10800
G1 Z.3 F720
G1 E.8 F1500
M204 S800
;WIDTH:0.649999
G1 F1200
G1 X33.931 Y44.846 E.00853
G1 X34.135 Y45.045 E.02082
G1 X34.248 Y45.377 E.02562
G1 X34.215 Y45.708 E.0243
G1 X34.068 Y45.969 E.02188
G1 X33.811 Y46.198 E.02514
G1 X33.246 Y46.53 E.04787
G1 X33.76 Y46.797 E.04231
G1 X34.12 Y47.157 E.03719
G1 X34.252 Y47.548 E.03014
G1 X34.24 Y47.698 E.01099
G1 X34.118 Y47.968 E.02164
G1 X33.919 Y48.161 E.02025
;WIDTH:0.648654
G1 X33.674 Y48.252 E.01905
;WIDTH:0.598985
G1 X33.395 Y48.26 E.01861
;WIDTH:0.61944
G1 X33.172 Y48.193 E.01612
;WIDTH:0.649999
G1 X32.949 Y48.127 E.01699
G1 X31.965 Y47.536 E.08384
G1 X31.685 Y47.456 E.02127
G1 X31.424 Y47.557 E.02044
G1 X30.403 Y48.17 E.08698
G1 X30.065 Y48.313 E.02681
G1 X29.654 Y48.353 E.03016
G1 X29.306 Y48.226 E.02706
G1 X29.085 Y47.97 E.0247
G1 X28.989 Y47.59 E.02863
G1 X29.04 Y47.293 E.02201
G1 X29.205 Y47.032 E.02255
G1 X29.508 Y46.802 E.02779
G1 X30.121 Y46.462 E.0512
G1 X29.531 Y46.107 E.05029
G1 X29.293 Y45.943 E.02111
G1 X29.072 Y45.661 E.02617
G1 X29.007 Y45.356 E.02278
G1 X29.077 Y45.088 E.02023
;WIDTH:0.694145
G1 X29.229 Y44.88 E.02024
;WIDTH:0.73829
G1 X29.38 Y44.673 E.02154
;WIDTH:0.787347
G1 X29.48 Y44.616 E.01038
;WIDTH:0.836405
G1 X29.579 Y44.558 E.01105
;WIDTH:0.885463
G1 X29.679 Y44.501 E.01179
G1 X29.582 Y44.424 E.01268
;WIDTH:0.83837
G1 X29.485 Y44.348 E.0119
;WIDTH:0.791277
G1 X29.388 Y44.271 E.01123
;WIDTH:0.744185
G1 X29.291 Y44.194 E.0105
;WIDTH:0.697092
G1 X29.195 Y44.118 E.00966
;WIDTH:0.649999
G1 X28.846 Y43.656 E.04229
G1 X28.726 Y43.167 E.03678
G1 X28.783 Y42.73 E.03219
G1 X29.061 Y42.236 E.0414
G1 X29.436 Y41.94 E.0349
G1 X29.933 Y41.796 E.03779
;WIDTH:0.678127
G1 X30.453 Y41.84 E.03995
;WIDTH:0.682932
G1 X30.535 Y41.862 E.00655
G1 X30.096 Y41.542 E.04191
;WIDTH:0.652425
G1 X29.675 Y41.076 E.04606
;WIDTH:0.649999
G1 X29.402 Y40.546 E.04355
G1 X29.235 Y39.752 E.05926
G1 X29.204 Y39.204 E.04009
G1 X29.211 Y38.473 E.0534
G1 X29.172 Y37.89 E.04268
G1 X29.261 Y37.522 E.02765
G1 X29.512 Y37.282 E.02537
G1 X29.847 Y37.164 E.02594
;WIDTH:0.690844
G1 X30.123 Y37.13 E.02173
;WIDTH:0.731688
G1 X30.399 Y37.096 E.02315
;WIDTH:0.744642
G1 X31.088 Y37.101 E.05846
;WIDTH:0.76704
G1 X31.65 Y37.09 E.04926
G1 X31.908 Y37.11 E.02268
;WIDTH:0.728026
G1 X32.166 Y37.13 E.02142
;WIDTH:0.689013
G1 X32.424 Y37.15 E.02016
;WIDTH:0.649999
G1 X33.346 Y37.151 E.06734
;WIDTH:0.695192
G1 X33.466 Y37.129 E.0096
;WIDTH:0.740384
G1 X33.585 Y37.106 E.01022
;WIDTH:0.785576
G1 X33.705 Y37.084 E.01097
;WIDTH:0.830768
G1 X33.824 Y37.061 E.01159
;WIDTH:0.87596
G1 X33.944 Y37.039 E.01235
G1 X34.483 Y37.038 E.05456
;WIDTH:0.900816
G1 X34.905 Y37.006 E.04415
G1 X34.966 Y37.023 E.00661
;WIDTH:0.86492
G1 X35.026 Y37.039 E.0062
;WIDTH:0.829026
G1 X35.086 Y37.055 E.00592
;WIDTH:0.793131
G1 X35.203 Y37.138 E.01304
;WIDTH:0.74542
G1 X35.32 Y37.222 E.01223
;WIDTH:0.69771
G1 X35.436 Y37.306 E.01131
;WIDTH:0.649999
G1 X35.6 Y37.544 E.02111
G1 X35.676 Y37.794 E.01909
G1 X35.704 Y38.176 E.02798
G1 X35.688 Y39.309 E.08276
G1 X35.652 Y39.84 E.03887
G1 X35.554 Y40.389 E.04073
G1 X35.356 Y40.909 E.04064
G1 X35.052 Y41.339 E.03846
G1 X34.667 Y41.682 E.03766
G1 X34.128 Y41.984 E.04513
G1 X33.455 Y42.193 E.05147
G1 X32.803 Y42.278 E.04803
G1 X31.935 Y42.26 E.06341
G1 X31.435 Y42.174 E.03706
;WIDTH:0.689858
G1 X31.163 Y42.108 E.02184
;WIDTH:0.729717
G1 X30.891 Y42.042 E.02323
G1 X31.058 Y42.277 E.02392
;WIDTH:0.689858
G1 X31.225 Y42.513 E.02255
;WIDTH:0.649999
G1 X31.363 Y42.973 E.03508
G1 X31.298 Y43.535 E.04132
G1 X31.034 Y43.996 E.0388
G1 X30.609 Y44.305 E.03838
;WIDTH:0.695751
G1 X30.495 Y44.354 E.00977
;WIDTH:0.741503
G1 X30.381 Y44.403 E.01048
;WIDTH:0.787255
G1 X30.268 Y44.451 E.01107
;WIDTH:0.833007
G1 X30.154 Y44.5 E.0119
;WIDTH:0.878759
G1 X30.04 Y44.549 E.0126
G1 X30.138 Y44.621 E.01235
;WIDTH:0.833007
G1 X30.236 Y44.694 E.01172
;WIDTH:0.787255
G1 X30.334 Y44.767 E.01102
;WIDTH:0.741503
G1 X30.432 Y44.839 E.01027
;WIDTH:0.695751
G1 X30.529 Y44.912 E.00956
;WIDTH:0.649999
G1 X31.222 Y45.315 E.05855
G1 X31.641 Y45.604 E.03718
G1 X32.09 Y45.333 E.03831
G1 X33.03 Y44.811 E.07854
G1 X33.381 Y44.702 E.02685
G1 X33.673 Y44.701 E.02133
G1 X33.751 Y44.745 E.00654
M204 S1000
;WIPE_START
G1 F8640
G1 X33.829 Y44.789 E-.02068
G1 X33.931 Y44.846 E-.02698
G1 X34.135 Y45.045 E-.0658
G1 X34.248 Y45.377 E-.08098
G1 X34.215 Y45.708 E-.07681
G1 X34.068 Y45.969 E-.06917
G1 X33.811 Y46.198 E-.07948
G1 X33.246 Y46.53 E-.15132
G1 X33.76 Y46.797 E-.13374
G1 X34.051 Y47.088 E-.09504
;WIPE_END
G1 Z.7 F720
G1 X30.033 Y44.547 F10800
G1 Z.3 F720
G1 E.8 F1500
M204 S800
;WIDTH:0.885463
G1 F1200
G1 X29.679 Y44.501 E.03656
M204 S1000
;WIPE_START
G1 F8640
G1 X30.033 Y44.547 E-.08243
;WIPE_END
G1 E-.71757 F2100
G1 Z.7 F720
G1 X30.565 Y41.88 F10800
G1 Z.3 F720
G1 E.8 F1500
M204 S800
;WIDTH:0.703966
G1 F1200
G1 X30.726 Y41.96 E.01434
;WIDTH:0.729153
G1 X30.888 Y42.04 E.01498
G1 X30.726 Y41.96 E.01498
;WIDTH:0.703966
G1 X30.565 Y41.88 E.01434
M204 S1000
;WIPE_START
G1 F8640
G1 X30.726 Y41.96 E-.04151
G1 X30.888 Y42.04 E-.04172
G1 X30.726 Y41.96 E-.04172
G1 X30.565 Y41.88 E-.04151
;WIPE_END
G1 E-.63354 F2100
G1 Z.7 F720
G1 X30.911 Y33.8 F10800
G1 Z.3 F720
G1 E.8 F1500
M204 S800
;WIDTH:0.881335
G1 F1200
G1 X30.741 Y34.059 E.03157
G1 X30.693 Y34.171 E.01242
G1 X30.778 Y34.368 E.02186
G1 X30.964 Y34.502 E.02336
G1 X31.191 Y34.52 E.0232
G1 X31.39 Y34.424 E.02251
G1 X31.639 Y34.182 E.03538
G1 X31.785 Y33.891 E.03317
;WIDTH:0.874043
G1 X31.919 Y33.324 E.05884
;WIDTH:0.857535
G1 X31.995 Y33.259 E.00989
;WIDTH:0.816028
G1 X32.07 Y33.194 E.0093
;WIDTH:0.774521
G1 X32.145 Y33.129 E.00879
;WIDTH:0.733014
G1 X32.22 Y33.064 E.00828
;WIDTH:0.691507
G1 X32.296 Y32.999 E.00782
;WIDTH:0.649999
G1 X32.588 Y32.907 E.02236
G1 X33.091 Y32.996 E.03731
G1 X33.37 Y33.207 E.02555
;WIDTH:0.626166
G1 X33.522 Y33.541 E.02571
;WIDTH:0.62538
G1 X33.603 Y33.814 E.01993
;WIDTH:0.665104
G1 X33.683 Y34.088 E.02139
G1 X33.829 Y34.265 E.01719
G1 X34.061 Y34.331 E.01807
G1 X34.187 Y34.279 E.01021
G1 X34.269 Y34.192 E.00896
G1 X34.273 Y33.948 E.01828
G1 X34.136 Y33.648 E.02471
;WIDTH:0.62538
G1 X33.999 Y33.349 E.02301
;WIDTH:0.600557
G1 X33.918 Y33.152 E.01424
;WIDTH:0.640032
G1 X33.881 Y32.913 E.01736
;WIDTH:0.649999
G1 X34.024 Y32.595 E.02547
G1 X34.298 Y32.354 E.02665
G1 X34.462 Y32.309 E.01242
;WIDTH:0.619916
G1 X34.627 Y32.263 E.01187
;WIDTH:0.601273
G1 X35.049 Y32.315 E.02847
;WIDTH:0.649999
G1 X35.314 Y32.478 E.02272
G1 X35.586 Y32.852 E.03378
G1 X35.759 Y33.286 E.03413
G1 X35.865 Y34.014 E.05374
G1 X35.846 Y34.508 E.03611
G1 X35.748 Y34.996 E.03636
G1 X35.609 Y35.326 E.02615
G1 X35.305 Y35.732 E.03705
;WIDTH:0.69771
G1 X35.163 Y35.853 E.01474
;WIDTH:0.74542
G1 X35.021 Y35.975 E.0159
;WIDTH:0.793131
G1 X34.878 Y36.096 E.01703
;WIDTH:0.828367
G1 X34.849 Y36.124 E.00384
;WIDTH:0.863603
G1 X34.819 Y36.153 E.00416
;WIDTH:0.89884
G1 X34.79 Y36.181 E.0042
G1 X34.298 Y36.243 E.05161
;WIDTH:0.87596
G1 X33.969 Y36.228 E.03334
G1 X33.872 Y36.196 E.01034
;WIDTH:0.828564
G1 X33.776 Y36.164 E.00965
;WIDTH:0.781168
G1 X33.679 Y36.132 E.00913
;WIDTH:0.733772
G1 X33.587 Y36.086 E.00859
;WIDTH:0.691886
G1 X33.495 Y36.039 E.00809
;WIDTH:0.649999
G1 X33.316 Y35.974 E.01391
G1 X33.033 Y35.755 E.02614
G1 X32.903 Y35.608 E.01433
G1 X32.703 Y35.876 E.02443
G1 X32.583 Y35.98 E.0116
G1 X32.277 Y36.136 E.02509
;WIDTH:0.684437
G1 X32.073 Y36.215 E.01692
;WIDTH:0.718874
G1 X31.869 Y36.293 E.01783
;WIDTH:0.753312
G1 X31.665 Y36.371 E.01877
G1 X31.135 Y36.424 E.04577
;WIDTH:0.775299
G1 X30.666 Y36.373 E.04183
G1 X30.452 Y36.258 E.02154
;WIDTH:0.733532
G1 X30.238 Y36.144 E.02024
;WIDTH:0.691766
G1 X30.024 Y36.029 E.01901
;WIDTH:0.649999
G1 X29.575 Y35.654 E.04273
G1 X29.29 Y35.206 E.03878
G1 X29.181 Y34.999 E.01709
G1 X29.06 Y34.508 E.03694
G1 X29.039 Y33.809 E.05108
G1 X29.17 Y33.121 E.05116
G1 X29.432 Y32.624 E.04104
G1 X29.683 Y32.388 E.02516
G1 X30.069 Y32.243 E.03012
G1 X30.44 Y32.247 E.0271
G1 X30.762 Y32.393 E.02582
G1 X30.966 Y32.658 E.02443
;WIDTH:0.691509
G1 X31.002 Y32.755 E.00809
;WIDTH:0.733018
G1 X31.038 Y32.852 E.00863
;WIDTH:0.774528
G1 X31.075 Y32.949 E.0092
;WIDTH:0.816037
G1 X31.111 Y33.046 E.0097
;WIDTH:0.857547
G1 X31.147 Y33.142 E.01014
;WIDTH:0.875467
G1 X31.017 Y33.64 E.05207
;WIDTH:0.881335
G1 X30.961 Y33.725 E.01037
M204 S1000
;WIPE_START
G1 F8640
G1 X30.911 Y33.8 E-.02081
G1 X30.741 Y34.059 E-.07154
G1 X30.693 Y34.171 E-.02814
G1 X30.778 Y34.368 E-.04954
G1 X30.964 Y34.502 E-.05293
G1 X31.191 Y34.52 E-.05258
G1 X31.39 Y34.424 E-.05102
G1 X31.639 Y34.182 E-.08018
G1 X31.785 Y33.891 E-.07518
G1 X31.919 Y33.324 E-.13453
G1 X31.995 Y33.259 E-.02309
G1 X32.07 Y33.194 E-.02292
G1 X32.145 Y33.129 E-.02292
G1 X32.22 Y33.064 E-.02292
G1 X32.296 Y32.999 E-.02309
G1 X32.579 Y32.91 E-.06861
;WIPE_END
G1 Z.7 F720
G1 X32.955 Y36.507 F10800
G1 Z.3 F720
G1 E.8 F1500
M204 S800
;TYPE:Perimeter
;WIDTH:0.765937
G1 F1200
G1 X33.053 Y36.526 E.00873
;WIDTH:0.727038
G1 X33.151 Y36.546 E.00827
;WIDTH:0.688139
G1 X33.249 Y36.566 E.00778
;WIDTH:0.64924
G1 X33.347 Y36.585 E.00728
M204 S1000
;WIPE_START
G1 F8640
G1 X33.249 Y36.566 E-.02305
G1 X33.151 Y36.546 E-.02309
G1 X33.053 Y36.526 E-.02309
G1 X32.955 Y36.507 E-.02305
;WIPE_END
G1 E-.70772 F2100
G1 Z.7 F720
G1 X32.485 Y28.305 F10800
G1 Z.3 F720
G1 E.8 F1500
M204 S800
;TYPE:External perimeter
;WIDTH:0.649999
G1 F1200
G1 X33.261 Y28.3 E.05668
G1 X33.851 Y28.323 E.04313
G1 X34.023 Y28.272 E.0131
G1 X34.089 Y28.118 E.01224
G1 X34.111 Y27.831 E.02102
G1 X34.046 Y27.266 E.04154
G1 X34.11 Y26.869 E.02937
G1 X34.245 Y26.67 E.01756
;WIDTH:0.646648
G1 X34.473 Y26.532 E.01935
;WIDTH:0.612161
G1 X34.892 Y26.442 E.02928
;WIDTH:0.624342
G1 X35.05 Y26.458 E.01109
;WIDTH:0.649999
G1 X35.208 Y26.474 E.0116
G1 X35.453 Y26.609 E.02043
G1 X35.647 Y26.857 E.023
G1 X35.723 Y27.206 E.02609
G1 X35.682 Y27.83 E.04568
G1 X35.697 Y31.052 E.23534
G1 X35.632 Y31.386 E.02485
G1 X35.466 Y31.64 E.02216
G1 X35.063 Y31.783 E.03123
;WIDTH:0.601273
G1 X34.648 Y31.755 E.02785
;WIDTH:0.620703
G1 X34.493 Y31.682 E.01189
;WIDTH:0.649999
G1 X34.337 Y31.608 E.01261
G1 X34.171 Y31.336 E.02327
G1 X34.083 Y30.815 E.03859
G1 X34.095 Y29.917 E.0656
G1 X33.175 Y29.897 E.06721
G1 X30.065 Y29.91 E.22716
G1 X29.559 Y29.771 E.03833
G1 X29.3 Y29.512 E.02675
G1 X29.185 Y29.173 E.02615
G1 X29.214 Y28.817 E.02609
G1 X29.346 Y28.538 E.02254
G1 X29.468 Y28.421 E.01235
G1 X29.752 Y28.291 E.02281
G1 X30.97 Y28.314 E.08898
G1 X32.395 Y28.306 E.10409
M204 S1000
;WIPE_START
G1 F8640
G1 X32.485 Y28.305 E-.02078
G1 X33.261 Y28.3 E-.17918
G1 X33.851 Y28.323 E-.13634
G1 X34.023 Y28.272 E-.04142
G1 X34.089 Y28.118 E-.03869
G1 X34.111 Y27.831 E-.06646
G1 X34.046 Y27.266 E-.13132
G1 X34.11 Y26.869 E-.09285
G1 X34.245 Y26.67 E-.05553
G1 X34.384 Y26.586 E-.03743
;WIPE_END
G1 Z.7 F720
G1 X32.478 Y21.158 F10800
G1 Z.3 F720
G1 E.8 F1500
M204 S800
;WIDTH:0.541835
G1 F1200
G1 X33.296 Y21.194 E.04876
;WIDTH:0.589466
G1 X33.553 Y21.224 E.01695
;WIDTH:0.637098
G1 X33.811 Y21.254 E.01855
;WIDTH:0.649999
G1 X34.234 Y21.397 E.03261
G1 X34.699 Y21.65 E.03867
G1 X35.018 Y21.905 E.02983
G1 X35.449 Y22.425 E.04933
G1 X35.682 Y22.888 E.03786
G1 X35.817 Y23.379 E.03719
G1 X35.864 Y23.923 E.03988
G1 X35.832 Y24.434 E.0374
G1 X35.733 Y24.849 E.03116
G1 X35.498 Y25.323 E.03864
G1 X35.252 Y25.643 E.02948
G1 X35.04 Y25.783 E.01856
;WIDTH:0.624342
G1 X34.828 Y25.924 E.01778
;WIDTH:0.612161
G1 X34.419 Y25.984 E.02824
;WIDTH:0.649999
G1 X33.998 Y25.816 E.03311
G1 X33.793 Y25.596 E.02196
G1 X33.739 Y25.459 E.01076
G1 X33.713 Y25.028 E.03154
G1 X33.869 Y24.656 E.02946
G1 X34.145 Y24.178 E.04032
G1 X34.203 Y24.006 E.01326
G1 X34.186 Y23.629 E.02756
G1 X34.061 Y23.32 E.02435
G1 X33.775 Y23.02 E.03027
G1 X33.195 Y22.803 E.04523
G1 X32.694 Y22.741 E.03687
G1 X31.915 Y22.77 E.05694
G1 X31.334 Y22.907 E.0436
G1 X30.986 Y23.134 E.03035
G1 X30.773 Y23.446 E.02759
G1 X30.685 Y23.775 E.02488
G1 X30.691 Y23.964 E.01381
G1 X30.736 Y24.275 E.02295
G1 X30.838 Y24.465 E.01575
G1 X31.082 Y24.719 E.02573
G1 X31.193 Y25.096 E.02871
G1 X31.111 Y25.545 E.03334
G1 X30.902 Y25.832 E.02593
G1 X30.774 Y25.928 E.01169
G1 X30.421 Y26.037 E.02698
G1 X30.163 Y25.972 E.01943
G1 X29.725 Y25.703 E.03754
G1 X29.377 Y25.301 E.03884
G1 X29.152 Y24.808 E.03958
G1 X29.04 Y24.152 E.04861
G1 X29.094 Y23.308 E.06177
G1 X29.34 Y22.605 E.0544
G1 X29.553 Y22.269 E.02906
G1 X30.022 Y21.781 E.04944
G1 X30.689 Y21.385 E.05666
G1 X31.037 Y21.302 E.02613
;WIDTH:0.608297
G1 X31.386 Y21.218 E.02435
;WIDTH:0.566594
G1 X31.849 Y21.185 E.02908
;WIDTH:0.539689
G1 X32.311 Y21.151 E.02746
;WIDTH:0.541835
G1 X32.388 Y21.154 E.00459
M204 S1000
;WIPE_START
G1 F8640
G1 X32.478 Y21.158 E-.0208
