; generated by PrusaSlicer 2.7.2+win64 on 2024-05-21 at 13:37:24 UTC

; external perimeters extrusion width = 0.65mm
; perimeters extrusion width = 0.65mm
; infill extrusion width = 0.65mm
; solid infill extrusion width = 0.65mm
; top infill extrusion width = 0.60mm
; first layer extrusion width = 0.65mm

M73 P0 R54
M73 Q0 S55
M201 X1000 Y1000 Z200 E5000 ; sets maximum accelerations, mm/sec^2
M203 X200 Y200 Z12 E120 ; sets maximum feedrates, mm / sec
M204 S1250 T1250 ; sets acceleration (S) and retract acceleration (R), mm/sec^2
M205 X8.00 Y8.00 Z0.40 E4.50 ; sets the jerk limits, mm/sec
M205 S0 T0 ; sets the minimum extruding and travel feed rate, mm/sec

; printing object 3dbenchy.stl id:0 copy 0
; stop printing object 3dbenchy.stl id:0 copy 0

;TYPE:Custom
M862.3 P "MK3S" ; printer model check
M862.1 P0.6 ; nozzle diameter check
M115 U3.13.2 ; tell printer latest fw version
G90 ; use absolute coordinates
M83 ; extruder relative mode
M104 S215 ; set extruder temp
M140 S60 ; set bed temp
M190 S60 ; wait for bed temp
M109 S215 ; wait for extruder temp
G28 W ; home all without mesh bed level
G80 X4.05374 Y34.1933 W45.8599 H22.8927 ; mesh bed levelling

G1 Z0.2 F720
G1 Y-3 F1000 ; go outside print area
G92 E0
G1 X60 E9 F1000 ; intro line
G1 X100 E12.5 F1000 ; intro line

G92 E0
M221 S95
G21 ; set units to millimeters
G90 ; use absolute coordinates
M83 ; use relative distances for extrusion

M900 K0.04 ; Filament gcode LA 1.5
M900 K18 ; Filament gcode LA 1.0




M107
;LAYER_CHANGE
;Z:0.3
;HEIGHT:0.3
G1 E-.8 F2100
G1 Z.7 F720
G1 X7.853 Y36.178 F10800
G1 Z.3 F720
G1 E.8 F1500
M204 S800
;TYPE:Skirt/Brim
;WIDTH:0.65
G1 F1200
G1 X8.333 Y36.074 E.03587
G1 X33.185 Y34.486 E1.81893
G1 X35.523 Y34.641 E.17115
G1 X37.88 Y35.106 E.17548
G1 X40.21 Y35.894 E.17966
G1 X42.463 Y37.014 E.18378
G1 X44.424 Y38.337 E.17278
G1 X46.256 Y39.96 E.17877
G1 X47.889 Y41.854 E.18266
G1 X49.157 Y43.797 E.16947
G1 X49.511 Y44.726 E.07262
G1 X49.621 Y45.672 E.06956
G1 X49.479 Y46.674 E.07392
G1 X49.063 Y47.652 E.07763
G1 X47.902 Y49.407 E.1537
G1 X46.516 Y51.051 E.15706
G1 X44.931 Y52.536 E.15864
G1 X43.306 Y53.741 E.14777
G1 X42.097 Y54.474 E.10327
G1 X40.809 Y55.124 E.10538
G1 X39.589 Y55.63 E.09647
G1 X38.215 Y56.081 E.10563
G1 X35.558 Y56.634 E.19823
G1 X32.85 Y56.791 E.19813
G1 X8.198 Y55.193 E1.8044
G1 X7.155 Y54.947 E.07827
G1 X6.344 Y54.548 E.06602
G1 X5.623 Y53.973 E.06736
G1 X5.043 Y53.253 E.06753
G1 X4.546 Y52.174 E.08677
G1 X4.353 Y51.039 E.08409
G1 X4.362 Y40.091 E.79966
G1 X4.537 Y39.136 E.07092
G1 X4.892 Y38.282 E.06755
G1 X5.54 Y37.392 E.08041
G1 X6.243 Y36.797 E.06727
G1 X7.172 Y36.326 E.07608
G1 X7.765 Y36.197 E.04433
M204 S1000
; printing object 3dbenchy.stl id:0 copy 0
;WIPE_START
G1 F8640
G1 X7.853 Y36.178 E-.02079
G1 X8.333 Y36.074 E-.11341
G1 X11.211 Y35.89 E-.6658
;WIPE_END
G1 Z.7 F720
G1 X7.722 Y46.383 F10800
G1 Z.3 F720
G1 E.8 F1500
M204 S800
;TYPE:External perimeter
;WIDTH:1.00408
G1 F1200
G1 X7.698 Y45.657 E.08514
;WIDTH:0.993241
G1 X7.717 Y44.92 E.08541
;WIDTH:1.00063
G1 X7.721 Y44.858 E.00726
M204 S1000
;WIPE_START
G1 F8640
G1 X7.717 Y44.92 E-.01435
G1 X7.698 Y45.657 E-.17023
G1 X7.722 Y46.383 E-.16773
;WIPE_END
G1 E-.44769 F2100
G1 Z.7 F720
G1 X13.275 Y42.83 F10800
G1 Z.3 F720
G1 E.8 F1500
M204 S800
;WIDTH:0.649999
G1 F1200
G1 X13.321 Y42.684 E.01118
G1 X13.651 Y42.398 E.0319
G1 X14.011 Y42.329 E.02677
G1 X14.603 Y42.371 E.04335
G1 X15.753 Y42.367 E.084
G1 X17.892 Y42.36 E.15624
G1 X18.296 Y42.485 E.03089
G1 X18.515 Y42.757 E.02551
G1 X18.537 Y42.929 E.01267
;WIDTH:0.616825
G1 X18.56 Y43.102 E.01203
;WIDTH:0.615369
G1 X18.514 Y43.482 E.02631
;WIDTH:0.649999
G1 X18.378 Y43.716 E.01977
G1 X18.107 Y43.882 E.02321
G1 X17.586 Y43.97 E.03859
G1 X16.688 Y43.958 E.0656
G1 X16.668 Y44.878 E.06721
G1 X16.682 Y47.987 E.22709
G1 X16.542 Y48.494 E.03842
G1 X16.315 Y48.737 E.02429
G1 X16.083 Y48.842 E.0186
G1 X15.752 Y48.868 E.02425
G1 X15.4 Y48.764 E.02681
G1 X15.16 Y48.55 E.02349
G1 X15.051 Y48.183 E.02796
G1 X15.089 Y47.565 E.04522
G1 X15.072 Y44.792 E.20255
G1 X15.104 Y44.254 E.03937
G1 X15.063 Y44.061 E.01441
G1 X14.915 Y43.956 E.01325
G1 X14.617 Y43.939 E.0218
G1 X13.97 Y44.006 E.04751
G1 X13.682 Y43.962 E.02128
G1 X13.409 Y43.773 E.02425
;WIDTH:0.640699
G1 X13.277 Y43.476 E.02336
;WIDTH:0.623403
G1 X13.218 Y43.009 E.03282
;WIDTH:0.649999
G1 X13.247 Y42.916 E.00712
M204 S1000
;WIPE_START
G1 F8640
G1 X13.275 Y42.83 E-.02088
G1 X13.321 Y42.684 E-.03535
G1 X13.651 Y42.398 E-.10083
G1 X14.011 Y42.329 E-.08464
G1 X14.603 Y42.371 E-.13704
G1 X15.753 Y42.367 E-.26554
G1 X16.427 Y42.365 E-.15572
;WIPE_END
G1 Z.7 F720
G1 X19.087 Y48.193 F10800
G1 Z.3 F720
G1 E.8 F1500
M204 S800
G1 F1200
G1 X19.017 Y48.022 E.0135
G1 X18.996 Y47.73 E.02138
G1 X19.089 Y47.397 E.02525
G1 X19.261 Y47.193 E.01949
;WIDTH:0.664217
G1 X19.532 Y47.04 E.02328
;WIDTH:0.713893
G1 X19.628 Y47.005 E.00828
;WIDTH:0.763569
G1 X19.723 Y46.971 E.0088
;WIDTH:0.813245
G1 X19.819 Y46.937 E.00951
;WIDTH:0.862921
G1 X19.914 Y46.903 E.01005
;WIDTH:0.87693
G1 X20.408 Y47.033 E.05177
G1 X20.861 Y47.342 E.05557
;WIDTH:0.865198
G1 X20.994 Y47.363 E.01345
G1 X21.183 Y47.251 E.02194
G1 X21.299 Y46.975 E.0299
G1 X21.274 Y46.777 E.01993
G1 X21.142 Y46.575 E.0241
;WIDTH:0.883871
G1 X20.86 Y46.353 E.03668
G1 X20.451 Y46.206 E.04442
;WIDTH:0.863614
G1 X20.05 Y46.115 E.04099
G1 X19.989 Y46.035 E.01003
;WIDTH:0.820891
G1 X19.928 Y45.955 E.00949
;WIDTH:0.778168
G1 X19.867 Y45.876 E.00889
;WIDTH:0.735445
G1 X19.806 Y45.796 E.00842
;WIDTH:0.692722
G1 X19.745 Y45.717 E.00782
;WIDTH:0.649999
G1 X19.68 Y45.441 E.02071
G1 X19.748 Y44.997 E.03281
G1 X19.944 Y44.714 E.02514
;WIDTH:0.638107
G1 X20.128 Y44.623 E.01469
;WIDTH:0.609866
G1 X20.312 Y44.532 E.01397
;WIDTH:0.623463
G1 X20.586 Y44.451 E.01992
;WIDTH:0.6653
G1 X20.859 Y44.369 E.02136
G1 X21.037 Y44.224 E.01721
;WIDTH:0.663447
G1 X21.103 Y43.991 E.01809
G1 X21.051 Y43.865 E.01018
G1 X20.963 Y43.783 E.00899
G1 X20.727 Y43.772 E.01765
G1 X20.424 Y43.915 E.02503
;WIDTH:0.622537
G1 X20.122 Y44.059 E.02329
;WIDTH:0.609866
G1 X19.916 Y44.118 E.01458
;WIDTH:0.638107
G1 X19.71 Y44.177 E.01533
;WIDTH:0.649999
G1 X19.441 Y44.082 E.02084
G1 X19.184 Y43.836 E.02599
G1 X19.082 Y43.661 E.0148
;WIDTH:0.639199
G1 X19.057 Y43.536 E.00914
;WIDTH:0.612669
G1 X19.032 Y43.41 E.00878
;WIDTH:0.586139
G1 X19.04 Y43.233 E.01153
;WIDTH:0.590144
G1 X19.074 Y43.089 E.0097
;WIDTH:0.620586
G1 X19.107 Y42.944 E.01032
;WIDTH:0.649999
G1 X19.206 Y42.804 E.01252
G1 X19.548 Y42.512 E.03285
G1 X20.084 Y42.286 E.04249
G1 X20.722 Y42.19 E.04713
G1 X21.37 Y42.219 E.04738
G1 X21.917 Y42.359 E.04124
G1 X22.369 Y42.626 E.03834
G1 X22.711 Y43.044 E.03945
;WIDTH:0.695315
G1 X22.767 Y43.125 E.00775
;WIDTH:0.74063
G1 X22.822 Y43.205 E.00819
;WIDTH:0.785945
G1 X22.878 Y43.285 E.00879
;WIDTH:0.83126
G1 X22.933 Y43.365 E.00929
;WIDTH:0.876576
G1 X22.988 Y43.445 E.00983
;WIDTH:0.878229
G1 X22.995 Y43.971 E.0534
G1 X22.971 Y44.064 E.00975
;WIDTH:0.836155
G1 X22.947 Y44.156 E.00915
;WIDTH:0.79408
G1 X22.923 Y44.249 E.00874
;WIDTH:0.752005
G1 X22.898 Y44.342 E.00826
;WIDTH:0.70993
G1 X22.776 Y44.613 E.02393
;WIDTH:0.679965
G1 X22.654 Y44.884 E.02282
;WIDTH:0.649999
G1 X22.394 Y45.145 E.02691
G1 X22.738 Y45.448 E.03348
G1 X22.965 Y45.951 E.04031
;WIDTH:0.683789
G1 X23.04 Y46.201 E.02016
;WIDTH:0.717579
G1 X23.115 Y46.451 E.02126
;WIDTH:0.751369
G1 X23.19 Y46.7 E.02228
;WIDTH:0.757631
G1 X23.177 Y47.204 E.04359
G1 X23.113 Y47.36 E.01458
;WIDTH:0.721754
G1 X23.05 Y47.515 E.01372
;WIDTH:0.685877
G1 X22.986 Y47.67 E.013
;WIDTH:0.649999
G1 X22.749 Y48.095 E.03554
G1 X22.506 Y48.396 E.02826
G1 X22.091 Y48.711 E.03806
G1 X21.777 Y48.87 E.02571
G1 X21.327 Y48.985 E.03393
G1 X20.585 Y49.013 E.05424
G1 X19.892 Y48.882 E.05151
G1 X19.396 Y48.62 E.04097
G1 X19.159 Y48.369 E.02521
G1 X19.121 Y48.276 E.00734
M204 S1000
;WIPE_START
G1 F8640
G1 X19.087 Y48.193 E-.02071
G1 X19.017 Y48.022 E-.04266
G1 X18.996 Y47.73 E-.0676
G1 X19.089 Y47.397 E-.07983
G1 X19.261 Y47.193 E-.06161
G1 X19.532 Y47.04 E-.07186
G1 X19.628 Y47.005 E-.02359
G1 X19.723 Y46.971 E-.0233
G1 X19.819 Y46.937 E-.02352
G1 X19.914 Y46.903 E-.0233
G1 X20.408 Y47.033 E-.11795
G1 X20.861 Y47.342 E-.12662
G1 X20.994 Y47.363 E-.03109
G1 X21.183 Y47.251 E-.05073
G1 X21.243 Y47.109 E-.03563
;WIPE_END
G1 Z.7 F720
G1 X33.241 Y44.693 F10800
G1 Z.3 F720
G1 E.8 F1500
M204 S800
G1 F1200
G1 X33.303 Y44.81 E.00967
G1 X33.568 Y44.293 E.04243
G1 X33.928 Y43.932 E.03724
G1 X34.259 Y43.801 E.026
G1 X34.565 Y43.836 E.0225
G1 X34.861 Y44.043 E.02638
G1 X35.001 Y44.311 E.02209
;WIDTH:0.604206
G1 X35.038 Y44.634 E.02189
;WIDTH:0.612353
G1 X35.005 Y44.792 E.01103
;WIDTH:0.638935
G1 X34.973 Y44.95 E.01155
;WIDTH:0.649999
G1 X34.417 Y45.902 E.08053
G1 X34.272 Y46.213 E.02506
G1 X34.232 Y46.341 E.0098
G1 X34.321 Y46.617 E.02118
G1 X34.941 Y47.65 E.088
G1 X35.1 Y48.026 E.02982
G1 X35.132 Y48.308 E.02073
G1 X35.081 Y48.582 E.02036
G1 X34.933 Y48.818 E.02035
G1 X34.704 Y48.985 E.0207
G1 X34.233 Y49.059 E.03482
G1 X33.94 Y48.957 E.02266
G1 X33.758 Y48.804 E.01737
G1 X33.49 Y48.395 E.03572
G1 X33.221 Y47.91 E.04051
G1 X32.97 Y48.404 E.04047
G1 X32.613 Y48.857 E.04213
G1 X32.311 Y49.028 E.02535
G1 X31.956 Y49.019 E.02594
G1 X31.61 Y48.819 E.02919
;WIDTH:0.692405
G1 X31.53 Y48.723 E.00979
;WIDTH:0.734811
G1 X31.45 Y48.627 E.01045
;WIDTH:0.777217
G1 X31.37 Y48.532 E.01104
;WIDTH:0.825555
G1 X31.324 Y48.413 E.01211
;WIDTH:0.873893
G1 X31.277 Y48.295 E.01282
G1 X31.231 Y48.376 E.00941
;WIDTH:0.83507
G1 X31.185 Y48.456 E.00887
;WIDTH:0.796247
G1 X31.139 Y48.537 E.0085
;WIDTH:0.757424
G1 X31.03 Y48.673 E.01507
;WIDTH:0.721616
G1 X30.92 Y48.809 E.01434
;WIDTH:0.685808
G1 X30.811 Y48.945 E.01351
;WIDTH:0.649999
G1 X30.32 Y49.252 E.0423
G1 X29.86 Y49.325 E.03402
G1 X29.392 Y49.229 E.0349
G1 X28.951 Y48.947 E.03823
G1 X28.668 Y48.529 E.03687
;WIDTH:0.656913
G1 X28.561 Y47.939 E.04431
;WIDTH:0.686881
G1 X28.636 Y47.491 E.03527
G1 X28.396 Y47.852 E.03366
;WIDTH:0.656913
G1 X28.041 Y48.226 E.03811
;WIDTH:0.649999
G1 X27.534 Y48.56 E.04435
G1 X27.027 Y48.736 E.0392
G1 X26.514 Y48.819 E.03796
G1 X25.975 Y48.848 E.03943
G1 X25.258 Y48.842 E.05237
G1 X24.728 Y48.881 E.03882
G1 X24.397 Y48.831 E.02445
G1 X24.226 Y48.732 E.01443
G1 X24.007 Y48.458 E.02562
G1 X23.96 Y48.258 E.01501
;WIDTH:0.672905
G1 X23.895 Y47.745 E.03925
;WIDTH:0.712886
G1 X23.881 Y47.463 E.02284
;WIDTH:0.752868
G1 X23.869 Y46.626 E.07188
;WIDTH:0.751369
G1 X23.886 Y46.385 E.0207
;WIDTH:0.717579
G1 X23.903 Y46.144 E.01968
;WIDTH:0.683789
G1 X23.921 Y45.903 E.01867
;WIDTH:0.649999
G1 X23.922 Y44.58 E.09663
;WIDTH:0.695646
G1 X23.9 Y44.46 E.00961
;WIDTH:0.741292
G1 X23.877 Y44.341 E.01023
;WIDTH:0.786938
G1 X23.854 Y44.221 E.01101
;WIDTH:0.832584
G1 X23.832 Y44.101 E.01169
;WIDTH:0.878229
G1 X23.809 Y43.981 E.0124
G1 X23.8 Y43.477 E.05117
;WIDTH:0.867159
G1 X23.807 Y43.292 E.01854
;WIDTH:0.827262
G1 X23.814 Y43.107 E.01762
;WIDTH:0.787365
G1 X23.854 Y43.025 E.00823
;WIDTH:0.741577
G1 X23.893 Y42.944 E.00759
;WIDTH:0.695788
G1 X23.932 Y42.862 E.00715
;WIDTH:0.649999
G1 X24.025 Y42.675 E.01525
G1 X24.256 Y42.483 E.02194
G1 X24.556 Y42.378 E.02322
G1 X24.856 Y42.349 E.02201
G1 X26.444 Y42.385 E.11602
G1 X26.943 Y42.451 E.03677
G1 X27.439 Y42.586 E.03755
G1 X27.838 Y42.788 E.03267
G1 X28.206 Y43.095 E.035
G1 X28.53 Y43.513 E.03863
G1 X28.727 Y43.861 E.02921
G1 X28.933 Y44.455 E.04592
G1 X29.037 Y45.085 E.04664
G1 X29.044 Y45.663 E.04222
G1 X29.044 Y46 E.02462
G1 X28.955 Y46.611 E.0451
;WIDTH:0.699426
G1 X28.807 Y47.181 E.04664
;WIDTH:0.705527
G1 X28.784 Y47.241 E.00514
G1 X28.988 Y47.015 E.02435
;WIDTH:0.674868
G1 X29.397 Y46.775 E.03611
;WIDTH:0.649999
G1 X29.91 Y46.685 E.03804
G1 X30.416 Y46.795 E.03782
G1 X30.801 Y47.054 E.03389
G1 X31.077 Y47.444 E.0349
;WIDTH:0.699028
G1 X31.126 Y47.558 E.00982
;WIDTH:0.748056
G1 X31.176 Y47.672 E.01061
;WIDTH:0.797084
G1 X31.226 Y47.785 E.01129
;WIDTH:0.846112
G1 X31.276 Y47.899 E.01214
;WIDTH:0.895141
G1 X31.326 Y48.013 E.0129
G1 X31.37 Y47.939 E.00892
;WIDTH:0.856403
G1 X31.415 Y47.865 E.00856
;WIDTH:0.817666
G1 X31.46 Y47.792 E.00806
;WIDTH:0.778929
G1 X31.536 Y47.701 E.01057
;WIDTH:0.735952
G1 X31.613 Y47.611 E.00992
;WIDTH:0.692976
G1 X31.689 Y47.521 E.00924
;WIDTH:0.649999
G1 X32.033 Y46.917 E.05077
G1 X32.355 Y46.46 E.04083
G1 X32.358 Y46.383 E.00563
G1 X31.671 Y45.202 E.0998
G1 X31.481 Y44.736 E.03676
G1 X31.472 Y44.376 E.0263
G1 X31.624 Y44.077 E.0245
G1 X31.842 Y43.909 E.0201
G1 X32.256 Y43.797 E.03133
G1 X32.535 Y43.865 E.02098
G1 X32.762 Y44.009 E.01964
G1 X33.111 Y44.448 E.04096
G1 X33.199 Y44.614 E.01372
M204 S1000
;WIPE_START
G1 F8640
G1 X33.241 Y44.693 E-.02066
G1 X33.303 Y44.81 E-.03057
G1 X33.568 Y44.293 E-.13415
G1 X33.928 Y43.932 E-.11772
G1 X34.259 Y43.801 E-.0822
G1 X34.565 Y43.836 E-.07112
G1 X34.861 Y44.043 E-.0834
G1 X35.001 Y44.311 E-.06982
G1 X35.038 Y44.634 E-.07507
G1 X35.005 Y44.792 E-.03727
G1 X34.973 Y44.95 E-.03722
G1 X34.884 Y45.103 E-.0408
;WIPE_END
G1 Z.7 F720
G1 X23.278 Y45.098 F10800
G1 Z.3 F720
G1 E.8 F1500
M204 S800
;TYPE:Perimeter
;WIDTH:0.765694
G1 F1200
G1 X23.302 Y44.968 E.01156
;WIDTH:0.718508
G1 X23.326 Y44.839 E.01071
;WIDTH:0.671322
G1 X23.35 Y44.709 E.01001
;WIDTH:0.624135
G1 X23.373 Y44.579 E.00922
M204 S1000
;WIPE_START
G1 F8640
G1 X23.35 Y44.709 E-.03048
G1 X23.326 Y44.839 E-.03052
G1 X23.302 Y44.968 E-.0303
G1 X23.278 Y45.098 E-.03052
;WIPE_END
G1 E-.67818 F2100
G1 Z.7 F720
G1 X28.654 Y47.461 F10800
G1 Z.3 F720
G1 E.8 F1500
M204 S800
;TYPE:External perimeter
;WIDTH:0.705527
G1 F1200
G1 X28.784 Y47.241 E.02043
M204 S1000
;WIPE_START
G1 F8640
G1 X28.654 Y47.461 E-.059
;WIPE_END
G1 E-.741 F2100
G1 Z.7 F720
G1 X31.277 Y48.295 F10800
G1 Z.3 F720
G1 E.8 F1500
M204 S800
;WIDTH:0.895141
G1 F1200
G1 X31.326 Y48.013 E.02966
M204 S1000
;WIPE_START
G1 F8640
G1 X31.277 Y48.295 E-.06609
;WIPE_END
G1 E-.73391 F2100
G1 Z.7 F720
G1 X43.898 Y48.701 F10800
G1 Z.3 F720
G1 E.8 F1500
M204 S800
;WIDTH:0.742405
G1 F1200
G1 X43.655 Y48.947 E.02924
M204 S1000
;WIPE_START
G1 F8640
G1 X43.898 Y48.701 E-.07984
;WIPE_END
G1 E-.72016 F2100
G1 Z.7 F720
G1 X20.967 Y52.731 F10800
G1 Z.3 F720
G1 E.8 F1500
M204 S800
;WIDTH:0.649999
G1 F1200
G1 X8.912 Y51.994 E.88216
G1 X8.369 Y51.868 E.04072
G1 X8.048 Y51.673 E.02743
G1 X7.75 Y51.318 E.03385
G1 X7.598 Y50.941 E.02969
G1 X7.543 Y50.513 E.03152
G1 X7.544 Y47.099 E.24936
;WIDTH:0.699275
G1 X7.571 Y46.999 E.0082
;WIDTH:0.74855
G1 X7.597 Y46.898 E.0089
;WIDTH:0.797825
G1 X7.624 Y46.798 E.00948
;WIDTH:0.847101
G1 X7.65 Y46.698 E.01009
;WIDTH:0.896376
G1 X7.676 Y46.598 E.01072
;WIDTH:0.945651
G1 X7.703 Y46.498 E.01139
;WIDTH:0.994927
G1 X7.729 Y46.397 E.0121
G1 X7.777 Y46.499 E.01308
;WIDTH:0.945651
G1 X7.824 Y46.601 E.01234
;WIDTH:0.896376
G1 X7.872 Y46.703 E.0117
;WIDTH:0.847101
G1 X7.919 Y46.804 E.01088
;WIDTH:0.797825
G1 X7.967 Y46.906 E.01031
;WIDTH:0.74855
G1 X8.014 Y47.008 E.00958
;WIDTH:0.699275
G1 X8.062 Y47.11 E.00893
;WIDTH:0.649999
G1 X8.397 Y47.819 E.05728
G1 X8.756 Y48.258 E.04142
G1 X9.11 Y48.549 E.03347
G1 X9.78 Y48.881 E.05462
G1 X10.343 Y49 E.04203
G1 X11.19 Y48.986 E.06187
G1 X11.79 Y48.824 E.04539
G1 X12.256 Y48.545 E.03967
G1 X12.494 Y48.309 E.02448
G1 X12.708 Y47.972 E.02916
G1 X12.808 Y47.636 E.02561
G1 X12.737 Y47.341 E.02216
G1 X12.518 Y47.068 E.02556
G1 X12.184 Y46.894 E.02751
G1 X11.668 Y46.888 E.03769
G1 X11.447 Y47.001 E.01813
G1 X11.111 Y47.286 E.03218
G1 X10.817 Y47.357 E.02209
G1 X10.471 Y47.344 E.02529
G1 X10.094 Y47.218 E.02903
G1 X9.827 Y46.969 E.02667
G1 X9.65 Y46.652 E.02652
G1 X9.521 Y46.025 E.04676
G1 X9.525 Y45.138 E.06479
G1 X9.656 Y44.545 E.04436
G1 X9.894 Y44.151 E.03362
G1 X10.225 Y43.923 E.02936
G1 X10.565 Y43.859 E.02527
G1 X10.89 Y43.881 E.02379
G1 X11.553 Y44.255 E.0556
G1 X12.046 Y44.362 E.03685
G1 X12.332 Y44.282 E.02169
G1 X12.64 Y43.993 E.03085
G1 X12.737 Y43.687 E.02345
;WIDTH:0.616651
G1 X12.74 Y43.406 E.01936
;WIDTH:0.623403
G1 X12.628 Y43.069 E.02476
;WIDTH:0.649999
G1 X12.343 Y42.735 E.03207
G1 X11.852 Y42.415 E.04281
G1 X11.432 Y42.267 E.03253
G1 X10.693 Y42.189 E.05428
G1 X10.102 Y42.245 E.04336
G1 X9.535 Y42.422 E.04339
G1 X8.993 Y42.744 E.04605
