; generated by PrusaSlicer 2.7.2+win64 on 2024-04-02 at 15:20:08 UTC

; external perimeters extrusion width = 0.68mm
; perimeters extrusion width = 0.68mm
; infill extrusion width = 0.68mm
; solid infill extrusion width = 0.68mm
; top infill extrusion width = 0.60mm
; first layer extrusion width = 0.63mm

M190 S60 ; set bed temperature and wait for it to be reached
G10 S210 P0 ; set temperature
;TYPE:Custom
G10 S210 P0 ; set temperature
M116 ; wait for temperature to be reached
G21 ; set units to millimeters
G90 ; use absolute coordinates
M82 ; use absolute distances for extrusion
G92 E0
; Filament gcode
M107
;LAYER_CHANGE
;Z:0.3
;HEIGHT:0.3
G1 E-2 F2400
G1 Z.3 F7800
G1 X89.225 Y111.81
G1 E0 F2400
;TYPE:Skirt/Brim
;WIDTH:0.63
G1 F1800
G1 X92.5 Y110.934 E.23916
G1 X112.5 Y110.934 E1.6501
G1 X114.748 Y111.331 E1.81114
G1 X116.725 Y112.474 E1.97224
G1 X118.19 Y114.225 E2.1333
G1 X119.066 Y117.5 E2.37246
G1 X119.066 Y137.5 E3.7834
G1 X118.669 Y139.748 E3.94444
G1 X117.526 Y141.725 E4.10554
G1 X115.775 Y143.19 E4.2666
G1 X112.5 Y144.066 E4.50576
G1 X92.5 Y144.066 E5.9167
G1 X90.252 Y143.669 E6.07774
G1 X88.275 Y142.526 E6.23884
G1 X86.81 Y140.775 E6.3999
G1 X85.934 Y137.5 E6.63906
G1 X85.934 Y117.5 E8.05
G1 X86.331 Y115.252 E8.21104
G1 X87.474 Y113.275 E8.37214
G1 X89.156 Y111.867 E8.52689
G1 E6.52689 F2400
G92 E0
G1 X89.156 Y111.867 F7800
G1 X112.185 Y137.185
G1 E2 F2400
;TYPE:External perimeter
;WIDTH:0.63
G1 F1800
G1 X92.815 Y137.185 E3.3665
G1 X92.815 Y117.815 E4.733
G1 X112.185 Y117.815 E6.0995
G1 X112.185 Y127.5 E6.78275
G1 X112.185 Y137.095 E7.45965
G1 X111.592 Y137.184 F7800
G1 X111.619 Y136.619
;TYPE:Perimeter
G1 F1800
G1 X93.381 Y136.619 E8.74629
G1 X93.381 Y118.381 E10.03293
G1 X111.619 Y118.381 E11.31957
G1 X111.619 Y127.5 E11.96289
G1 X111.619 Y136.529 E12.59986
G1 E10.59986 F2400
G92 E0
G1 X111.619 Y136.529 F7800
G1 X111.45 Y119.718
G1 E2 F2400
;TYPE:Solid infill
;WIDTH:0.641507
G1 F1800
G1 X110.536 Y118.805 E2.09299
G1 X109.72 Y118.805 E2.15173
G1 X111.195 Y120.28 E2.30188
G1 X111.195 Y121.096 E2.36062
G1 X108.904 Y118.805 E2.59384
G1 X108.088 Y118.805 E2.65258
G1 X111.195 Y121.912 E2.96887
G1 X111.195 Y122.728 E3.02761
G1 X107.272 Y118.805 E3.42697
G1 X106.456 Y118.805 E3.48571
G1 X111.195 Y123.544 E3.96813
G1 X111.195 Y124.361 E4.02694
G1 X105.639 Y118.805 E4.59253
G1 X104.823 Y118.805 E4.65127
G1 X111.195 Y125.177 E5.29993
G1 X111.195 Y125.993 E5.35867
G1 X104.007 Y118.805 E6.0904
G1 X103.191 Y118.805 E6.14914
G1 X111.195 Y126.809 E6.96393
G1 X111.195 Y127.625 E7.02267
G1 X102.375 Y118.805 E7.92053
G1 X101.558 Y118.805 E7.97934
G1 X111.195 Y128.442 E8.96037
G1 X111.195 Y129.258 E9.01911
G1 X100.742 Y118.805 E10.08321
G1 X99.926 Y118.805 E10.14195
G1 X111.195 Y130.074 E11.28912
G1 X111.195 Y130.89 E11.34786
G1 X99.11 Y118.805 E12.57809
G1 X98.294 Y118.805 E12.63683
G1 X111.195 Y131.706 E13.95013
G1 X111.195 Y132.522 E14.00887
G1 X97.478 Y118.805 E15.40524
G1 X96.661 Y118.805 E15.46405
G1 X111.195 Y133.339 E16.94359
G1 X111.195 Y134.155 E17.00233
G1 X95.845 Y118.805 E18.56494
G1 X95.029 Y118.805 E18.62368
G1 X111.195 Y134.971 E20.26935
G1 X111.195 Y135.787 E20.32809
G1 X94.213 Y118.805 E22.05683
G1 X93.805 Y118.805 E22.0862
G1 X93.805 Y119.213 E22.11557
G1 X110.787 Y136.195 E23.84431
G1 X109.971 Y136.195 E23.90305
G1 X93.805 Y120.029 E25.54872
G1 X93.805 Y120.845 E25.60746
G1 X109.155 Y136.195 E27.17007
G1 X108.338 Y136.195 E27.22888
G1 X93.805 Y121.662 E28.70832
G1 X93.805 Y122.478 E28.76706
G1 X107.522 Y136.195 E30.16343
G1 X106.706 Y136.195 E30.22217
G1 X93.805 Y123.294 E31.53547
G1 X93.805 Y124.11 E31.59421
G1 X105.89 Y136.195 E32.82444
G1 X105.074 Y136.195 E32.88318
G1 X93.805 Y124.926 E34.03035
G1 X93.805 Y125.742 E34.08909
G1 X104.258 Y136.195 E35.15319
G1 X103.441 Y136.195 E35.212
G1 X93.805 Y126.559 E36.19293
G1 X93.805 Y127.375 E36.25167
G1 X102.625 Y136.195 E37.14953
G1 X101.809 Y136.195 E37.20827
G1 X93.805 Y128.191 E38.02306
G1 X93.805 Y129.007 E38.0818
G1 X100.993 Y136.195 E38.81353
G1 X100.177 Y136.195 E38.87227
G1 X93.805 Y129.823 E39.52093
G1 X93.805 Y130.639 E39.57967
G1 X99.361 Y136.195 E40.14526
G1 X98.544 Y136.195 E40.20407
G1 X93.805 Y131.456 E40.68649
G1 X93.805 Y132.272 E40.74523
G1 X97.728 Y136.195 E41.14459
G1 X96.912 Y136.195 E41.20333
G1 X93.805 Y133.088 E41.51962
G1 X93.805 Y133.904 E41.57836
G1 X96.096 Y136.195 E41.81158
G1 X95.28 Y136.195 E41.87032
G1 X93.805 Y134.72 E42.02047
G1 X93.805 Y135.537 E42.07928
G1 X94.718 Y136.45 E42.17222
;LAYER_CHANGE
;Z:0.6
;HEIGHT:0.3
G1 Z.6 F7800
G1 E40.17222 F2400
G1 Z.6 F7800
G1 X112.16 Y137.16
G1 E42.17222 F2400
;TYPE:External perimeter
;WIDTH:0.68
G1 F1800
G1 X92.84 Y137.16 E43.65568
G1 X92.84 Y117.84 E45.13914
G1 X112.16 Y117.84 E46.6226
G1 X112.16 Y127.5 E47.36433
G1 X112.16 Y137.07 E48.09915
G1 X111.567 Y137.159 F7800
G1 X111.544 Y136.544
;TYPE:Perimeter
G1 F3600
G1 X93.456 Y136.544 E49.48801
G1 X93.456 Y118.456 E50.87687
G1 X111.544 Y118.456 E52.26573
G1 X111.544 Y127.5 E52.96016
G1 X111.544 Y136.454 E53.64768
G1 E51.64768 F2400
G92 E0
G1 X111.544 Y136.454 F7800
G1 X94.084 Y118.967
G1 E2 F2400
;TYPE:Solid infill
;WIDTH:0.829367
G1 F1200
G1 X94.017 Y118.9 E2.00904
G1 X93.924 Y118.924 E2.0182
G1 X93.9 Y119.017 E2.02736
G1 X93.967 Y119.084 E2.0364
G1 X94.06 Y119.06 E2.04556
;WIDTH:0.68
G1 X93.917 Y120.043 E2.12183
G1 X95.043 Y118.917 E2.2441
G1 X95.914 Y118.917 E2.31098
G1 X93.917 Y120.914 E2.52783
G1 X93.917 Y121.784 E2.59463
G1 X96.784 Y118.917 E2.90595
G1 X97.655 Y118.917 E2.97283
G1 X93.917 Y122.655 E3.37873
G1 X93.917 Y123.525 E3.44553
G1 X98.525 Y118.917 E3.9459
G1 X99.396 Y118.917 E4.01278
G1 X93.917 Y124.396 E4.60773
G1 X93.917 Y125.267 E4.67461
G1 X100.267 Y118.917 E5.36414
G1 X101.137 Y118.917 E5.43094
G1 X93.917 Y126.137 E6.21495
G1 X93.917 Y127.008 E6.28183
G1 X102.008 Y118.917 E7.16042
G1 X102.879 Y118.917 E7.2273
G1 X93.917 Y127.879 E8.20047
G1 X93.917 Y128.749 E8.26727
G1 X103.749 Y118.917 E9.33491
G1 X104.62 Y118.917 E9.40179
G1 X93.917 Y129.62 E10.56401
G1 X93.917 Y130.49 E10.63081
G1 X105.49 Y118.917 E11.8875
G1 X106.361 Y118.917 E11.95438
G1 X93.917 Y131.361 E13.30565
G1 X93.917 Y132.232 E13.37253
G1 X107.232 Y118.917 E14.81838
G1 X108.102 Y118.917 E14.88518
G1 X93.917 Y133.102 E16.4255
G1 X93.917 Y133.973 E16.49238
G1 X108.973 Y118.917 E18.12728
G1 X109.843 Y118.917 E18.19408
G1 X93.917 Y134.843 E19.92345
G1 X93.917 Y134.843 F7800
G1 X93.848 Y136.198
;WIDTH:0.574381
G1 F1200
G1 X93.802 Y136.152 E19.92759
G1 X93.741 Y136.169 E19.93162
G1 X93.724 Y136.231 E19.93571
G1 X93.769 Y136.276 E19.93976
G1 X93.831 Y136.259 E19.94385
;WIDTH:0.609587
G1 X93.86 Y136.077 E19.95638
;WIDTH:0.644793
G1 X93.889 Y135.896 E19.96965
;WIDTH:0.68
G1 X93.917 Y135.714 E19.98379
G1 X110.714 Y118.917 E21.80774
G1 X111.083 Y119.419 E21.85558
G1 X94.419 Y136.083 E23.66509
G1 X95.29 Y136.083 E23.73197
G1 X111.083 Y120.29 E25.4469
G1 X111.083 Y121.161 E25.51378
G1 X96.161 Y136.083 E27.13413
G1 X97.031 Y136.083 E27.20093
G1 X111.083 Y122.031 E28.72681
G1 X111.083 Y122.902 E28.79369
G1 X97.902 Y136.083 E30.22499
G1 X98.772 Y136.083 E30.29179
G1 X111.083 Y123.772 E31.62862
G1 X111.083 Y124.643 E31.6955
G1 X99.643 Y136.083 E32.93775
G1 X100.514 Y136.083 E33.00463
G1 X111.083 Y125.514 E34.1523
G1 X111.083 Y126.384 E34.2191
G1 X101.384 Y136.083 E35.2723
G1 X102.255 Y136.083 E35.33918
G1 X111.083 Y127.255 E36.2978
G1 X111.083 Y128.126 E36.36468
G1 X103.126 Y136.083 E37.22872
G1 X103.996 Y136.083 E37.29552
G1 X111.083 Y128.996 E38.06508
G1 X111.083 Y129.867 E38.13196
G1 X104.867 Y136.083 E38.80694
G1 X105.737 Y136.083 E38.87374
G1 X111.083 Y130.737 E39.45425
G1 X111.083 Y131.608 E39.52113
G1 X106.608 Y136.083 E40.00706
G1 X107.479 Y136.083 E40.07394
G1 X111.083 Y132.479 E40.46529
G1 X111.083 Y133.349 E40.53209
G1 X108.349 Y136.083 E40.82897
G1 X109.22 Y136.083 E40.89585
G1 X111.083 Y134.22 E41.09815
G1 X111.407 Y134.838 E41.15173
;WIDTH:0.574381
G1 X111.362 Y134.793 E41.15578
G1 X111.3 Y134.809 E41.15985
G1 X111.284 Y134.871 E41.16392
G1 X111.329 Y134.916 E41.16797
G1 X111.39 Y134.899 E41.172
;WIDTH:0.609587
G1 X111.288 Y134.963 E41.18019
;WIDTH:0.644793
G1 X111.185 Y135.027 E41.18897
;WIDTH:0.68
G1 X111.083 Y135.09 E41.19818
G1 X110.09 Y136.083 E41.30601
G1 X110.027 Y136.185 E41.31522
;WIDTH:0.644793
G1 X109.963 Y136.288 E41.324
;WIDTH:0.609587
G1 X109.899 Y136.39 E41.33219
;WIDTH:0.574381
G1 X109.838 Y136.407 E41.33622
G1 X109.793 Y136.362 E41.34027
G1 X109.809 Y136.3 E41.34434
G1 X109.871 Y136.284 E41.34841
G1 X109.916 Y136.329 E41.35246
;WIDTH:0.68
G1 X111.108 Y136.108 E41.44555
;WIDTH:0.751233
G1 X111.025 Y136.13 E41.45291
G1 X110.964 Y136.069 E41.4603
G1 X110.986 Y135.986 E41.46766
G1 X111.069 Y135.964 E41.47502
G1 X111.13 Y136.025 E41.48241
;LAYER_CHANGE
;Z:0.9
;HEIGHT:0.3
G1 Z.9 F7800
G1 X112.16 Y137.16
;TYPE:External perimeter
;WIDTH:0.68
G1 F1800
G1 X92.84 Y137.16 E42.96587
G1 X92.84 Y117.84 E44.44933
G1 X112.16 Y117.84 E45.93279
G1 X112.16 Y127.5 E46.67452
G1 X112.16 Y137.07 E47.40934
G1 X111.567 Y137.159 F7800
G1 X111.544 Y136.544
;TYPE:Perimeter
G1 F3600
G1 X93.456 Y136.544 E48.7982
G1 X93.456 Y118.456 E50.18706
G1 X111.544 Y118.456 E51.57592
G1 X111.544 Y127.5 E52.27035
G1 X111.544 Y136.454 E52.95787
G1 E50.95787 F2400
G92 E0
G1 X111.544 Y136.454 F7800
G1 X93.967 Y135.916
G1 E2 F2400
;TYPE:Solid infill
;WIDTH:0.829367
G1 F1200
G1 X93.9 Y135.983 E2.00904
G1 X93.924 Y136.076 E2.0182
G1 X94.017 Y136.1 E2.02736
G1 X94.084 Y136.033 E2.0364
G1 X94.06 Y135.94 E2.04556
;WIDTH:0.68
G1 X93.917 Y134.957 E2.12183
G1 X95.043 Y136.083 E2.2441
G1 X95.914 Y136.083 E2.31098
G1 X93.917 Y134.086 E2.52783
G1 X93.917 Y133.216 E2.59463
G1 X96.784 Y136.083 E2.90595
G1 X97.655 Y136.083 E2.97283
G1 X93.917 Y132.345 E3.37873
G1 X93.917 Y131.475 E3.44553
G1 X98.525 Y136.083 E3.9459
G1 X99.396 Y136.083 E4.01278
G1 X93.917 Y130.604 E4.60773
G1 X93.917 Y129.733 E4.67461
G1 X100.267 Y136.083 E5.36414
G1 X101.137 Y136.083 E5.43094
G1 X93.917 Y128.863 E6.21495
G1 X93.917 Y127.992 E6.28183
G1 X102.008 Y136.083 E7.16042
G1 X102.879 Y136.083 E7.2273
G1 X93.917 Y127.122 E8.20041
G1 X93.917 Y126.251 E8.26729
G1 X103.749 Y136.083 E9.33493
G1 X104.62 Y136.083 E9.40181
G1 X93.917 Y125.38 E10.56403
G1 X93.917 Y124.51 E10.63083
G1 X105.49 Y136.083 E11.88752
G1 X106.361 Y136.083 E11.9544
G1 X93.917 Y123.639 E13.30567
G1 X93.917 Y122.768 E13.37255
G1 X107.232 Y136.083 E14.8184
G1 X108.102 Y136.083 E14.8852
G1 X93.917 Y121.898 E16.42552
G1 X93.917 Y121.027 E16.4924
G1 X108.973 Y136.083 E18.1273
G1 X109.843 Y136.083 E18.1941
G1 X93.917 Y120.157 E19.92347
G1 X93.917 Y120.157 F7800
G1 X93.769 Y118.724
;WIDTH:0.574381
G1 F1200
G1 X93.724 Y118.769 E19.92752
G1 X93.741 Y118.831 E19.93161
G1 X93.802 Y118.848 E19.93564
G1 X93.848 Y118.802 E19.93978
G1 X93.831 Y118.741 E19.94381
;WIDTH:0.609587
G1 X93.86 Y118.923 E19.95634
;WIDTH:0.644793
G1 X93.889 Y119.104 E19.96961
;WIDTH:0.68
G1 X93.917 Y119.286 E19.98375
G1 X110.714 Y136.083 E21.8077
G1 X110.875 Y136.106 E21.82019
;WIDTH:0.644793
G1 X111.036 Y136.129 E21.83196
;WIDTH:0.609587
G1 X111.198 Y136.152 E21.84309
;WIDTH:0.574381
G1 X111.152 Y136.198 E21.84723
G1 X111.169 Y136.259 E21.85126
G1 X111.231 Y136.276 E21.85535
G1 X111.276 Y136.231 E21.8594
G1 X111.259 Y136.169 E21.86349
;WIDTH:0.68
G1 X111.083 Y135.581 E21.91062
G1 X94.419 Y118.917 E23.72013
G1 X95.29 Y118.917 E23.78701
G1 X111.083 Y134.71 E25.50194
G1 X111.083 Y133.839 E25.56882
G1 X96.161 Y118.917 E27.18917
G1 X97.031 Y118.917 E27.25597
G1 X111.083 Y132.969 E28.78185
G1 X111.083 Y132.098 E28.84873
G1 X97.902 Y118.917 E30.28003
G1 X98.772 Y118.917 E30.34683
G1 X111.083 Y131.228 E31.68366
G1 X111.083 Y130.357 E31.75054
G1 X99.643 Y118.917 E32.99279
G1 X100.514 Y118.917 E33.05967
G1 X111.083 Y129.486 E34.20734
G1 X111.083 Y128.616 E34.27414
G1 X101.384 Y118.917 E35.32734
G1 X102.255 Y118.917 E35.39422
G1 X111.083 Y127.745 E36.35284
G1 X111.083 Y126.875 E36.41964
G1 X103.126 Y118.917 E37.28373
G1 X103.996 Y118.917 E37.35053
G1 X111.083 Y126.004 E38.12009
G1 X111.083 Y125.133 E38.18697
G1 X104.867 Y118.917 E38.86195
G1 X105.737 Y118.917 E38.92875
G1 X111.083 Y124.263 E39.50926
G1 X111.083 Y123.392 E39.57614
G1 X106.608 Y118.917 E40.06207
G1 X107.479 Y118.917 E40.12895
G1 X111.083 Y122.521 E40.5203
G1 X111.083 Y121.651 E40.5871
G1 X108.349 Y118.917 E40.88398
G1 X109.22 Y118.917 E40.95086
G1 X111.083 Y120.78 E41.15316
G1 X111.329 Y120.084 E41.20984
;WIDTH:0.574381
G1 X111.284 Y120.129 E41.21389
G1 X111.3 Y120.191 E41.21796
G1 X111.362 Y120.207 E41.22203
G1 X111.407 Y120.162 E41.22608
G1 X111.39 Y120.101 E41.23011
;WIDTH:0.609587
G1 X111.288 Y120.037 E41.2383
;WIDTH:0.644793
G1 X111.185 Y119.973 E41.24708
;WIDTH:0.68
G1 X111.083 Y119.91 E41.25629
G1 X110.09 Y118.917 E41.36412
G1 X110.027 Y118.815 E41.37333
;WIDTH:0.644793
G1 X109.963 Y118.712 E41.38211
;WIDTH:0.609587
G1 X109.899 Y118.61 E41.3903
;WIDTH:0.574381
G1 X109.916 Y118.671 E41.39433
G1 X109.871 Y118.716 E41.39838
G1 X109.809 Y118.7 E41.40245
G1 X109.793 Y118.638 E41.40652
G1 X109.838 Y118.593 E41.41057
;WIDTH:0.68
G1 X111.025 Y118.87 E41.50416
;WIDTH:0.751233
G1 X110.964 Y118.931 E41.51155
G1 X110.986 Y119.014 E41.51891
G1 X111.069 Y119.036 E41.52627
G1 X111.13 Y118.975 E41.53366
G1 X111.108 Y118.892 E41.54102
M106 S252.45
;LAYER_CHANGE
;Z:1.2
;HEIGHT:0.3
G1 Z1.2 F7800
G1 E39.54102 F2400
G1 Z1.2 F7800
G1 X112.16 Y137.16
G1 E41.54102 F2400
;TYPE:External perimeter
;WIDTH:0.68
G1 F1800
G1 X92.84 Y137.16 E43.02448
G1 X92.84 Y117.84 E44.50794
G1 X112.16 Y117.84 E45.9914
G1 X112.16 Y127.5 E46.73313
G1 X112.16 Y137.07 E47.46795
G1 X111.567 Y137.159 F7800
G1 X111.544 Y136.544
;TYPE:Perimeter
G1 F3600
G1 X93.456 Y136.544 E48.85681
G1 X93.456 Y118.456 E50.24567
G1 X111.544 Y118.456 E51.63453
G1 X111.544 Y127.5 E52.32896
G1 X111.544 Y136.454 E53.01648
G1 E51.01648 F2400
G92 E0
G1 X111.544 Y136.454 F7800
G1 X107.389 Y136.083
G1 E2 F2400
;TYPE:Internal infill
;WIDTH:0.68
G1 F4800
G1 X111.083 Y136.083 E2.28364
G1 X93.917 Y118.917 E4.14766
G1 X93.917 Y127.376 E4.79717
G1 X102.376 Y118.917 E5.71572
G1 X102.624 Y118.917 E5.73476
G1 X111.083 Y127.376 E6.65331
G1 X111.083 Y127.624 E6.67235
G1 X102.624 Y136.083 E7.5909
G1 X102.376 Y136.083 E7.60994
G1 X93.917 Y127.624 E8.52849
G1 X93.917 Y136.083 E9.178
G1 X111.083 Y118.917 E11.04202
G1 X111.083 Y122.611 E11.32566
;LAYER_CHANGE
;Z:1.5
;HEIGHT:0.3
G1 Z1.5 F7800
G1 E9.32566 F2400
G1 Z1.5 F7800
G1 X112.16 Y137.16
G1 E11.32566 F2400
;TYPE:External perimeter
;WIDTH:0.68
G1 F1800
G1 X92.84 Y137.16 E12.80912
G1 X92.84 Y117.84 E14.29258
G1 X112.16 Y117.84 E15.77604
G1 X112.16 Y127.5 E16.51777
G1 X112.16 Y137.07 E17.25259
G1 X111.567 Y137.159 F7800
G1 X111.544 Y136.544
;TYPE:Perimeter
G1 F3600
G1 X93.456 Y136.544 E18.64145
G1 X93.456 Y118.456 E20.03031
G1 X111.544 Y118.456 E21.41917
G1 X111.544 Y127.5 E22.1136
G1 X111.544 Y136.454 E22.80112
G1 E20.80112 F2400
G92 E0
G1 X111.544 Y136.454 F7800
G1 X107.389 Y136.083
G1 E2 F2400
;TYPE:Internal infill
;WIDTH:0.68
G1 F4800
G1 X111.083 Y136.083 E2.28364
G1 X93.917 Y118.917 E4.14766
G1 X93.917 Y127.376 E4.79717
G1 X102.376 Y118.917 E5.71572
G1 X102.624 Y118.917 E5.73476
G1 X111.083 Y127.376 E6.65331
G1 X111.083 Y127.624 E6.67235
G1 X102.624 Y136.083 E7.5909
G1 X102.376 Y136.083 E7.60994
G1 X93.917 Y127.624 E8.52849
G1 X93.917 Y136.083 E9.178
G1 X111.083 Y118.917 E11.04202
G1 X111.083 Y122.611 E11.32566
;LAYER_CHANGE
;Z:1.8
;HEIGHT:0.3
G1 Z1.8 F7800
G1 E9.32566 F2400
G1 Z1.8 F7800
G1 X112.16 Y137.16
G1 E11.32566 F2400
;TYPE:External perimeter
;WIDTH:0.68
G1 F1800
G1 X92.84 Y137.16 E12.80912
G1 X92.84 Y117.84 E14.29258
G1 X112.16 Y117.84 E15.77604
G1 X112.16 Y127.5 E16.51777
G1 X112.16 Y137.07 E17.25259
G1 X111.567 Y137.159 F7800
G1 X111.544 Y136.544
;TYPE:Perimeter
G1 F3600
G1 X93.456 Y136.544 E18.64145
G1 X93.456 Y118.456 E20.03031
G1 X111.544 Y118.456 E21.41917
G1 X111.544 Y127.5 E22.1136
G1 X111.544 Y136.454 E22.80112
G1 E20.80112 F2400
G92 E0
G1 X111.544 Y136.454 F7800
G1 X107.389 Y136.083
G1 E2 F2400
;TYPE:Internal infill
;WIDTH:0.68
G1 F4800
G1 X111.083 Y136.083 E2.28364
G1 X93.917 Y118.917 E4.14766
G1 X93.917 Y127.376 E4.79717
