; generated by PrusaSlicer 2.3.0+linux-x64 on 2021-01-17 at 03:59:28 UTC

; 

; external perimeters extrusion width = 0.45mm
; perimeters extrusion width = 0.45mm
; infill extrusion width = 0.45mm
; solid infill extrusion width = 0.45mm
; top infill extrusion width = 0.40mm
; first layer extrusion width = 0.42mm

M73 P0 R9
M73 Q0 S9
M201 X1000 Y1000 Z200 E5000 ; sets maximum accelerations, mm/sec^2
M203 X200 Y200 Z12 E120 ; sets maximum feedrates, mm/sec
M204 P1250 R1250 T1250 ; sets acceleration (P, T) and retract acceleration (R), mm/sec^2
M205 X8.00 Y8.00 Z0.40 E4.50 ; sets the jerk limits, mm/sec
M205 S0 T0 ; sets the minimum extruding and travel feed rate, mm/sec
M107
;TYPE:Custom
M862.3 P "MK3S" ; printer model check
M862.1 P0.4 ; nozzle diameter check
M115 U3.9.2 ; tell printer latest fw version
G90 ; use absolute coordinates
M83 ; extruder relative mode
M104 S230 ; set extruder temp
M140 S85 ; set bed temp
M190 S85 ; wait for bed temp
M109 S230 ; wait for extruder temp
G28 W ; home all without mesh bed level
G80 ; mesh bed leveling
G1 Y-3.0 F1000.0 ; go outside print area
G92 E0.0
G1 X60.0 E9.0 F1000.0 ; intro line
G1 X100.0 E12.5 F1000.0 ; intro line
G92 E0.0
M221 S95

; Don't change E values below. Excessive value can damage the printer.
M907 E430 ; set extruder motor current
G21 ; set units to millimeters
G90 ; use absolute coordinates
M83 ; use relative distances for extrusion
M900 K0.08 ; Filament gcode LA 1.5
M900 K45 ; Filament gcode LA 1.0
;LAYER_CHANGE
;Z:0.2
;HEIGHT:0.2
;BEFORE_LAYER_CHANGE
G92 E0.0
;0.2


M73 P1 R9
M73 Q1 S9
G1 E-1.40000 F2100.000
G1 Z0.200 F10800.000
;AFTER_LAYER_CHANGE
;0.2
G1 Z0.400
G1 X114.013 Y96.677
G1 Z0.200
G1 E1.40000 F2100.000
M204 S1000
;TYPE:Skirt
;WIDTH:0.42
G1 F1200.000
G1 X114.473 Y96.228 E0.02014
G1 X115.023 Y95.898 E0.02014
G1 X115.563 Y95.719 E0.01784
G1 X116.125 Y95.655 E0.01771
G1 X137.738 Y95.654 E0.67769
G1 X138.686 Y95.824 E0.03018
G1 X139.514 Y96.307 E0.03006
G1 X140.127 Y97.044 E0.03006
G1 X140.449 Y97.947 E0.03006
G1 X141.515 Y105.982 E0.25416
G1 X141.374 Y106.721 E0.02358
G1 X141.037 Y107.394 E0.02358
G1 X140.532 Y107.950 E0.02358
G1 X139.894 Y108.349 E0.02358
G1 X139.152 Y108.564 E0.02422
G1 X135.138 Y109.028 E0.12670
G1 X131.053 Y109.312 E0.12840
G1 X126.947 Y109.408 E0.12879
G1 X122.853 Y109.313 E0.12840
G1 X118.792 Y109.032 E0.12763
G1 X114.510 Y108.522 E0.13520
M73 Q2 S9
G1 X113.912 Y108.310 E0.01988
G1 X113.379 Y107.968 E0.01988
G1 X112.938 Y107.512 E0.01988
G1 X112.613 Y106.967 E0.01988
G1 X112.408 Y106.290 E0.02218
G1 X112.382 Y105.583 E0.02218
G1 X113.464 Y97.824 E0.24564
M73 P2 R9
G1 X113.671 Y97.220 E0.02001
G1 X113.981 Y96.728 E0.01826
;WIPE_START
G1 F8640.000
G1 X114.473 Y96.228 E-0.16180
G1 X115.023 Y95.898 E-0.14829
G1 X115.563 Y95.719 E-0.13136
G1 X116.125 Y95.655 E-0.13042
G1 X119.408 Y95.654 E-0.75813
;WIPE_END
G1 E-0.07000 F2100.000
G1 Z0.400 F10800.000
G1 X115.210 Y96.227
G1 Z0.200
G1 E1.40000 F2100.000
G1 F1200.000
G1 X116.136 Y96.032 E0.02966
G1 X137.738 Y96.031 E0.67733
G1 X138.555 Y96.178 E0.02602
G1 X139.275 Y96.598 E0.02614
G1 X139.805 Y97.241 E0.02614
G1 X140.080 Y98.024 E0.02602
G1 X141.141 Y105.925 E0.24993
G1 X141.024 Y106.579 E0.02083
G1 X140.728 Y107.178 E0.02095
G1 X140.277 Y107.671 E0.02095
G1 X139.711 Y108.018 E0.02083
G1 X139.089 Y108.192 E0.02024
G1 X135.089 Y108.654 E0.12626
G1 X131.026 Y108.936 E0.12770
G1 X126.946 Y109.031 E0.12794
G1 X122.886 Y108.937 E0.12734
G1 X118.830 Y108.657 E0.12746
G1 X114.623 Y108.161 E0.13283
G1 X114.091 Y107.978 E0.01763
G1 X113.617 Y107.675 E0.01763
G1 X113.228 Y107.270 E0.01763
G1 X112.944 Y106.784 E0.01763
G1 X112.776 Y106.204 E0.01894
G1 X112.759 Y105.600 E0.01894
G1 X113.831 Y97.909 E0.24347
G1 X114.015 Y97.374 E0.01775
G1 X114.318 Y96.900 E0.01763
G1 X114.724 Y96.511 E0.01763
G1 X115.158 Y96.258 E0.01575
;WIPE_START
G1 F8640.000
G1 X116.136 Y96.032 E-0.23161
G1 X120.892 Y96.031 E-1.09839
;WIPE_END
G1 E-0.07000 F2100.000
G1 Z0.400 F10800.000
G1 X115.951 Y93.673
G1 Z0.200
M73 Q3 S9
G1 E1.40000 F2100.000
G1 F1200.000
G1 X120.816 Y94.183 E0.15335
G1 X124.949 Y94.411 E0.12978
M73 P3 R9
G1 X128.979 Y94.410 E0.12637
G1 X133.004 Y94.189 E0.12640
G1 X137.739 Y93.674 E0.14931
G1 X138.681 Y93.757 E0.02966
G1 X140.004 Y94.247 E0.04423
G1 X141.120 Y95.095 E0.04395
G1 X141.801 Y95.962 E0.03456
G1 X142.274 Y97.046 E0.03707
G1 X143.497 Y105.640 E0.27217
G1 X143.373 Y106.988 E0.04246
G1 X142.875 Y108.195 E0.04095
G1 X141.921 Y109.377 E0.04761
G1 X140.883 Y110.087 E0.03944
G1 X139.856 Y110.444 E0.03407
G1 X135.311 Y110.980 E0.14350
G1 X131.134 Y111.270 E0.13127
G1 X126.923 Y111.367 E0.13209
G1 X122.746 Y111.270 E0.13099
G1 X118.588 Y110.981 E0.13070
G1 X114.022 Y110.449 E0.14412
G1 X112.759 Y109.953 E0.04256
G1 X111.856 Y109.268 E0.03553
G1 X110.958 Y108.101 E0.04618
G1 X110.579 Y107.206 E0.03048
G1 X110.384 Y105.881 E0.04198
G1 X111.547 Y97.323 E0.27081
G1 X111.913 Y96.279 E0.03469
G1 X112.664 Y95.201 E0.04117
G1 X113.702 Y94.367 E0.04174
G1 X114.554 Y93.938 E0.02992
G1 X115.893 Y93.684 E0.04273
G1 X115.941 Y94.051 F10800.000
G1 F1200.000
G1 X120.786 Y94.559 E0.15275
G1 X124.938 Y94.788 E0.13039
G1 X128.989 Y94.787 E0.12702
G1 X133.035 Y94.565 E0.12705
M73 Q4 S9
G1 X137.727 Y94.051 E0.14798
M73 P4 R9
G1 X138.577 Y94.120 E0.02674
G1 X139.800 Y94.566 E0.04082
G1 X140.840 Y95.349 E0.04083
G1 X141.466 Y96.138 E0.03156
G1 X141.904 Y97.125 E0.03387
G1 X143.120 Y105.671 E0.27066
G1 X143.013 Y106.873 E0.03782
G1 X142.562 Y107.982 E0.03754
G1 X141.684 Y109.082 E0.04412
G1 X140.691 Y109.761 E0.03773
G1 X139.754 Y110.081 E0.03104
G1 X135.272 Y110.605 E0.14151
G1 X131.113 Y110.894 E0.13072
G1 X126.927 Y110.990 E0.13127
G1 X122.768 Y110.893 E0.13044
M73 P4 R8
G1 X118.618 Y110.605 E0.13042
G1 X114.090 Y110.077 E0.14294
G1 X112.964 Y109.636 E0.03792
G1 X112.138 Y109.017 E0.03237
G1 X111.295 Y107.929 E0.04316
G1 X110.948 Y107.126 E0.02742
G1 X110.761 Y105.853 E0.04035
G1 X111.918 Y97.393 E0.26771
M73 Q4 S8
G1 X112.260 Y96.428 E0.03210
G1 X112.921 Y95.478 E0.03630
G1 X113.923 Y94.673 E0.04029
G1 X114.652 Y94.303 E0.02565
G1 X115.882 Y94.063 E0.03927
G1 X115.930 Y94.429 F10800.000
G1 F1200.000
G1 X120.756 Y94.935 E0.15212
G1 X124.928 Y95.165 E0.13101
G1 X129.000 Y95.164 E0.12768
G1 X133.066 Y94.941 E0.12770
G1 X137.717 Y94.429 E0.14671
G1 X138.475 Y94.484 E0.02382
G1 X139.598 Y94.885 E0.03738
G1 X140.562 Y95.605 E0.03772
G1 X141.133 Y96.315 E0.02859
G1 X141.535 Y97.205 E0.03061
G1 X142.744 Y105.702 E0.26910
M73 Q5 S8
G1 X142.640 Y106.810 E0.03488
G1 X142.250 Y107.770 E0.03250
G1 X141.447 Y108.787 E0.04062
G1 X140.501 Y109.435 E0.03597
M73 P5 R8
G1 X139.654 Y109.717 E0.02797
G1 X135.233 Y110.230 E0.13957
G1 X131.091 Y110.517 E0.13017
G1 X126.931 Y110.613 E0.13045
G1 X122.781 Y110.516 E0.13017
G1 X118.649 Y110.229 E0.12988
G1 X114.158 Y109.705 E0.14177
G1 X113.168 Y109.318 E0.03334
G1 X112.419 Y108.763 E0.02921
G1 X111.630 Y107.754 E0.04016
G1 X111.318 Y107.045 E0.02430
G1 X111.138 Y105.824 E0.03869
G1 X112.289 Y97.465 E0.26458
G1 X112.606 Y96.579 E0.02949
G1 X113.179 Y95.755 E0.03146
G1 X114.144 Y94.979 E0.03884
G1 X114.753 Y94.667 E0.02145
G1 X115.872 Y94.441 E0.03577
;WIPE_START
G1 F8640.000
G1 X120.756 Y94.935 E-1.13349
G1 X121.605 Y94.982 E-0.19651
;WIPE_END
G1 E-0.07000 F2100.000
G1 Z0.400 F10800.000
G1 X137.741 Y94.805
G1 Z0.200
G1 E1.40000 F2100.000
G1 F1200.000
G1 X133.097 Y95.316 E0.14647
G1 X130.385 Y95.466 E0.08518
;WIPE_START
G1 F8640.000
G1 X133.097 Y95.316 E-0.62728
G1 X136.122 Y94.984 E-0.70272
;WIPE_END
G1 E-0.07000 F2100.000
G1 Z0.400 F10800.000
G1 X123.533 Y95.466
G1 Z0.200
G1 E1.40000 F2100.000
G1 F1200.000
G1 X120.726 Y95.311 E0.08816
G1 X115.920 Y94.807 E0.15150
G1 X114.901 Y95.015 E0.03262
G1 X114.363 Y95.287 E0.01888
G1 X113.471 Y95.995 E0.03572
G1 X112.952 Y96.732 E0.02826
G1 X112.660 Y97.536 E0.02682
G1 X111.515 Y105.848 E0.26307
G1 X111.686 Y106.961 E0.03531
G1 X111.964 Y107.578 E0.02122
G1 X112.666 Y108.478 E0.03576
G1 X113.329 Y108.976 E0.02603
M73 Q6 S8
G1 X114.272 Y109.345 E0.03175
G1 X118.688 Y109.854 E0.13935
G1 X122.803 Y110.140 E0.12934
M73 P6 R8
G1 X126.936 Y110.236 E0.12963
G1 X131.069 Y110.141 E0.12963
G1 X135.194 Y109.855 E0.12963
G1 X139.592 Y109.345 E0.13884
G1 X140.312 Y109.107 E0.02378
G1 X141.170 Y108.530 E0.03241
G1 X141.936 Y107.558 E0.03881
G1 X142.280 Y106.696 E0.02909
G1 X142.367 Y105.734 E0.03032
G1 X141.179 Y97.334 E0.26599
G1 X140.822 Y96.530 E0.02756
G1 X140.314 Y95.891 E0.02561
G1 X139.441 Y95.229 E0.03434
G1 X138.420 Y94.858 E0.03408
G1 X137.741 Y94.805 E0.02135
G1 X138.364 Y95.231 F10800.000
G1 F1200.000
G1 X137.764 Y95.182 E0.01888
G1 X135.188 Y95.466 E0.08126
;WIPE_START
G1 F8640.000
G1 X137.764 Y95.182 E-0.59844
G1 X138.364 Y95.231 E-0.13900
;WIPE_END
G1 E-0.66256 F2100.000
G1 Z0.400 F10800.000
G1 X138.364 Y95.231
G1 Z0.200
G1 E1.40000 F2100.000
G1 F1200.000
G1 X139.236 Y95.547 E0.02910
G1 X140.067 Y96.176 E0.03266
G1 X140.510 Y96.743 E0.02256
G1 X140.823 Y97.460 E0.02455
G1 X141.991 Y105.765 E0.26295
G1 X141.918 Y106.586 E0.02584
G1 X141.622 Y107.347 E0.02562
G1 X140.893 Y108.272 E0.03693
G1 X140.127 Y108.778 E0.02879
G1 X139.530 Y108.972 E0.01966
G1 X135.154 Y109.480 E0.13813
G1 X131.048 Y109.764 E0.12908
G1 X126.932 Y109.859 E0.12909
G1 X122.824 Y109.763 E0.12881
G1 X118.726 Y109.479 E0.12880
G1 X114.341 Y108.973 E0.13842
G1 X113.494 Y108.636 E0.02858
G1 X112.914 Y108.193 E0.02288
G1 X112.297 Y107.400 E0.03152
G1 X112.054 Y106.874 E0.01816
G1 X111.892 Y105.871 E0.03186
G1 X113.031 Y97.608 E0.26151
M73 Q7 S8
G1 X113.296 Y96.888 E0.02409
G1 X113.761 Y96.237 E0.02506
G1 X114.580 Y95.596 E0.03261
G1 X115.046 Y95.363 E0.01635
G1 X115.910 Y95.186 E0.02764
G1 X118.585 Y95.466 E0.08433
;WIPE_START
M73 P7 R8
G1 F8640.000
G1 X115.910 Y95.186 E-0.62103
G1 X115.046 Y95.363 E-0.20355
G1 X114.580 Y95.596 E-0.12042
G1 X113.761 Y96.237 E-0.24012
G1 X113.396 Y96.748 E-0.14489
;WIPE_END
G1 E-0.07000 F2100.000
G1 Z0.400 F10800.000
G1 X130.406 Y96.220
G1 Z0.200
G1 E1.40000 F2100.000
G1 F1200.000
G1 X129.031 Y96.296 E0.04318
G1 X124.897 Y96.296 E0.12963
G1 X123.511 Y96.220 E0.04351
;WIPE_START
G1 F8640.000
G1 X124.897 Y96.296 E-0.32043
G1 X129.031 Y96.296 E-0.95462
G1 X129.269 Y96.283 E-0.05496
;WIPE_END
G1 E-0.07000 F2100.000
G1 Z0.400 F10800.000
G1 X135.217 Y96.220
G1 Z0.200
G1 E1.40000 F2100.000
G1 F1200.000
G1 X133.191 Y96.444 E0.06392
G1 X129.041 Y96.673 E0.13029
G1 X124.886 Y96.673 E0.13028
G1 X120.635 Y96.439 E0.13352
G1 X118.581 Y96.220 E0.06476
;WIPE_START
G1 F8640.000
G1 X120.635 Y96.439 E-0.47688
G1 X124.324 Y96.642 E-0.85312
;WIPE_END
G1 E-0.07000 F2100.000
G1 Z0.400 F10800.000
G1 X115.937 Y96.317
G1 Z0.200
G1 E1.40000 F2100.000
G1 F1200.000
G1 X120.604 Y96.815 E0.14716
G1 X124.876 Y97.051 E0.13414
G1 X129.052 Y97.050 E0.13093
G1 X133.222 Y96.820 E0.13095
G1 X137.801 Y96.313 E0.14446
G1 X138.155 Y96.343 E0.01115
G1 X138.630 Y96.506 E0.01574
G1 X139.297 Y97.005 E0.02611
G1 X139.507 Y97.271 E0.01062
G1 X139.743 Y97.799 E0.01815
G1 X140.862 Y105.860 E0.25517
G1 X140.829 Y106.275 E0.01305
G1 X140.672 Y106.727 E0.01502
G1 X140.102 Y107.462 E0.02916
G1 X139.662 Y107.747 E0.01643
G1 X139.311 Y107.862 E0.01158
G1 X135.038 Y108.355 E0.13487
G1 X130.983 Y108.635 E0.12745
M73 Q8 S8
G1 X126.927 Y108.727 E0.12718
G1 X122.890 Y108.634 E0.12664
M73 P8 R8
G1 X118.843 Y108.354 E0.12717
G1 X114.552 Y107.859 E0.13544
G1 X114.004 Y107.624 E0.01869
G1 X113.703 Y107.382 E0.01214
G1 X113.252 Y106.794 E0.02322
G1 X113.128 Y106.520 E0.00943
G1 X113.024 Y105.886 E0.02013
G1 X114.143 Y97.825 E0.25519
G1 X114.286 Y97.437 E0.01295
G1 X114.596 Y97.002 E0.01676
G1 X115.223 Y96.528 E0.02465
G1 X115.435 Y96.426 E0.00739
G1 X115.879 Y96.330 E0.01422
G1 X115.538 Y96.789 F10800.000
G1 F1200.000
G1 X115.987 Y96.692 E0.01440
G1 X120.573 Y97.191 E0.14464
G1 X124.866 Y97.428 E0.13479
G1 X129.062 Y97.427 E0.13158
G1 X133.253 Y97.196 E0.13160
G1 X137.826 Y96.690 E0.14425
G1 X138.056 Y96.708 E0.00724
G1 X138.479 Y96.853 E0.01402
G1 X139.020 Y97.262 E0.02127
G1 X139.176 Y97.453 E0.00774
G1 X139.374 Y97.880 E0.01475
G1 X140.486 Y105.892 E0.25364
G1 X140.465 Y106.175 E0.00888
G1 X140.326 Y106.575 E0.01328
G1 X139.870 Y107.163 E0.02333
G1 X139.479 Y107.416 E0.01462
G1 X139.250 Y107.489 E0.00752
G1 X134.999 Y107.980 E0.13418
G1 X130.970 Y108.258 E0.12664
G1 X126.932 Y108.350 E0.12664
G1 X122.911 Y108.258 E0.12609
G1 X118.882 Y107.979 E0.12663
G1 X114.625 Y107.488 E0.13436
G1 X114.182 Y107.290 E0.01522
G1 X113.987 Y107.133 E0.00784
G1 X113.583 Y106.611 E0.02070
G1 X113.494 Y106.425 E0.00645
G1 X113.402 Y105.907 E0.01651
G1 X114.514 Y97.896 E0.25360
G1 X114.611 Y97.630 E0.00888
G1 X114.849 Y97.284 E0.01317
G1 X115.484 Y96.816 E0.02475
;WIPE_START
G1 F8640.000
G1 X115.987 Y96.692 E-0.11956
G1 X120.573 Y97.191 E-1.06518
G1 X121.201 Y97.226 E-0.14526
;WIPE_END
M73 Q9 S8
G1 E-0.07000 F2100.000
G1 Z0.400 F10800.000
G1 X114.935 Y97.823
G1 Z0.200
G1 E1.40000 F2100.000
G1 F1200.000
G1 X115.141 Y97.525 E0.01135
G1 X115.641 Y97.156 E0.01949
G1 X115.979 Y97.071 E0.01092
G1 X120.542 Y97.567 E0.14393
M73 P9 R8
G1 X124.855 Y97.805 E0.13543
G1 X129.073 Y97.804 E0.13223
G1 X133.284 Y97.572 E0.13225
G1 X137.847 Y97.067 E0.14393
G1 X138.000 Y97.081 E0.00481
G1 X138.277 Y97.173 E0.00917
G1 X138.775 Y97.549 E0.01956
G1 X138.848 Y97.638 E0.00361
G1 X139.005 Y97.963 E0.01129
G1 X140.110 Y105.925 E0.25205
G1 X140.098 Y106.084 E0.00499
G1 X140.006 Y106.372 E0.00949
G1 X139.593 Y106.905 E0.02115
G1 X139.337 Y107.067 E0.00949
G1 X139.186 Y107.117 E0.00499
G1 X134.960 Y107.605 E0.13338
G1 X130.948 Y107.881 E0.12609
G1 X126.927 Y107.973 E0.12609
G1 X122.924 Y107.881 E0.12555
G1 X118.921 Y107.604 E0.12582
G1 X114.700 Y107.117 E0.13322
G1 X114.367 Y106.961 E0.01153
G1 X114.248 Y106.861 E0.00489
G1 X113.897 Y106.401 E0.01813
G1 X113.847 Y106.292 E0.00376
G1 X113.780 Y105.928 E0.01160
G1 X114.884 Y97.966 E0.25204
G1 X114.915 Y97.879 E0.00289
G1 X115.266 Y98.005 F10800.000
G1 F1200.000
G1 X115.394 Y97.806 E0.00740
G1 X115.818 Y97.494 E0.01650
G1 X116.032 Y97.445 E0.00689
G1 X120.511 Y97.943 E0.14129
G1 X124.845 Y98.182 E0.13610
G1 X129.083 Y98.181 E0.13288
G1 X133.315 Y97.948 E0.13290
G1 X137.871 Y97.444 E0.14372
G1 X138.127 Y97.521 E0.00837
G1 X138.505 Y97.813 E0.01499
G1 X138.636 Y98.049 E0.00846
G1 X139.734 Y105.959 E0.25040
M73 Q10 S8
G1 X139.657 Y106.225 E0.00869
G1 X139.364 Y106.604 E0.01501
G1 X139.125 Y106.745 E0.00869
G1 X134.921 Y107.230 E0.13269
G1 X130.935 Y107.505 E0.12528
M73 P10 R8
G1 X126.932 Y107.596 E0.12555
G1 X122.946 Y107.504 E0.12501
G1 X118.960 Y107.229 E0.12528
G1 X114.779 Y106.746 E0.13197
G1 X114.535 Y106.615 E0.00869
G1 X114.224 Y106.214 E0.01591
G1 X114.158 Y105.945 E0.00869
G1 X115.252 Y98.063 E0.24951
G1 X115.659 Y98.078 F10800.000
G1 F1200.000
G1 X115.961 Y97.844 E0.01197
G1 X116.031 Y97.825 E0.00230
G1 X120.480 Y98.319 E0.14034
G1 X124.835 Y98.559 E0.13675
G1 X129.093 Y98.558 E0.13353
G1 X133.346 Y98.324 E0.13355
G1 X137.858 Y97.824 E0.14233
G1 X137.929 Y97.844 E0.00230
G1 X138.231 Y98.077 E0.01197
G1 X138.268 Y98.142 E0.00232
G1 X139.352 Y105.955 E0.24732
G1 X139.333 Y106.028 E0.00239
G1 X139.092 Y106.339 E0.01234
G1 X139.025 Y106.377 E0.00239
G1 X134.882 Y106.854 E0.13077
G1 X130.913 Y107.128 E0.12473
G1 X126.936 Y107.219 E0.12473
G1 X122.959 Y107.127 E0.12473
G1 X118.999 Y106.854 E0.12446
G1 X114.864 Y106.377 E0.13050
G1 X114.798 Y106.339 E0.00239
G1 X114.557 Y106.028 E0.01234
G1 X114.537 Y105.955 E0.00239
G1 X115.629 Y98.129 E0.24772
G1 X115.979 Y98.306 F10800.000
G1 F1200.000
G1 X116.102 Y98.212 E0.00485
G1 X120.449 Y98.695 E0.13713
G1 X124.824 Y98.936 E0.13741
M73 Q11 S8
G1 X129.104 Y98.935 E0.13418
G1 X133.378 Y98.700 E0.13420
M73 P11 R8
G1 X137.788 Y98.212 E0.13912
G1 X137.910 Y98.306 E0.00486
G1 X138.963 Y105.890 E0.24006
G1 X138.866 Y106.016 E0.00498
G1 X134.852 Y106.479 E0.12668
G1 X130.900 Y106.751 E0.12419
G1 X126.941 Y106.842 E0.12419
G1 X122.981 Y106.751 E0.12419
G1 X119.038 Y106.479 E0.12392
G1 X115.024 Y106.016 E0.12668
G1 X114.927 Y105.890 E0.00498
G1 X115.971 Y98.366 E0.23818
; printing object part004.stl id:0 copy 0
G1 X116.507 Y98.861 F10800.000
